**kern	**dynam	**kern	**dynam	**kern	**dynam	**kern	**dynam	**mxhm
*part4	*part4	*part3	*part3	*part2	*part2	*part1	*part1	*part1
*staff4	*	*staff3	*	*staff2	*	*staff1	*	*
*I"Cello	*	*I"Viola	*	*I"2nd Violin	*	*I"1st Violin	*	*
*clefF4	*	*clefC3	*	*clefG2	*	*clefG2	*	*
*k[f#c#g#d#a#]	*	*k[f#c#g#d#a#]	*	*k[f#c#g#d#a#]	*	*k[f#c#g#d#a#]	*	*
*B:	*	*B:	*	*B:	*	*B:	*	*
*M2/4	*	*M2/4	*	*M2/4	*	*M2/4	*	*
=1	=1	=1	=1	=1	=1	=1	=1	=1
!	!	!	!	!	!	!LO:TX:a:B:t=Allegro	!	!
[2B	p	[2d#	p	[2f#	p	(4ff#	p	.G.I
.	.	.	.	.	.	32dd#LLL	.	.
.	.	.	.	.	.	32ee	.	.
.	.	.	.	.	.	32dd#	.	.
.	.	.	.	.	.	32ee	.	.
.	.	.	.	.	.	32ff#	.	.
.	.	.	.	.	.	32gg#	.	.
.	.	.	.	.	.	32aa#	.	.
.	.	.	.	.	.	32bbJJJ)	.	.
=2	=2	=2	=2	=2	=2	=2	=2	=2
4B]	.	4d#]	.	4f#]	.	4ff#	.	.
8r	.	8r	.	8r	.	8r	.	.
16.r	.	16.r	.	16.r	.	16.r	.	.
32d#	.	32d#	.	32d#	.	32dd#	.	.
=3	=3	=3	=3	=3	=3	=3	=3	=3
.	.	.	.	.	.	8qff#/	.	V7
8eL	.	8eL	.	8eL	.	8eeL	.	.
16.r	.	16.r	.	16.r	.	16.r	.	.
32eJkk	.	32eJkk	.	32eeJkk	.	32eeJkk	.	.
8c#L	.	8c#L	.	8cc#L	.	8cc#L	.	.
16.r	.	16.r	.	16.r	.	16.r	.	.
32A#Jkk	.	32A#Jkk	.	32a#Jkk	.	32a#Jkk	.	.
=4	=4	=4	=4	=4	=4	=4	=4	=4
4F#	.	4F#	.	4f#	.	4f#	.	V7\\
4r	.	4r	.	4r	.	8r	.	.
.	.	.	.	.	.	8f#	.	.
=5	=5	=5	=5	=5	=5	=5	=5	=5
2r	.	8r	.	8r	.	(4b	.	vi
.	.	8g#'	.	4b	.	.	.	.
.	.	8e'L	.	.	.	16cc#LL	.	ii65
.	.	.	.	.	.	16dd#	.	.
.	.	8f#'J	.	8a#'	.	16ee	.	V7
.	.	.	.	.	.	16cc#JJ)	.	.
=6	=6	=6	=6	=6	=6	=6	=6	=6
2r	.	8d#'L	.	8b'L	.	(4ff#	.	I
.	.	8B'J	.	8dd#'J	.	.	.	.
.	.	4r	.	4r	.	8bbL)	.	.
.	.	.	.	.	.	8f#J	.	.
=7	=7	=7	=7	=7	=7	=7	=7	=7
8r	.	8r	.	8r	.	(4b	.	vi
8G#'	.	4B	.	8d#'	.	.	.	.
8E'L	.	.	.	8g#'L	.	16cc#LL	.	ii65
.	.	.	.	.	.	16dd#	.	.
8F#'J	.	8A#'	.	8e'J	.	16ee	.	V7
.	.	.	.	.	.	16cc#JJ)	.	.
=8	=8	=8	=8	=8	=8	=8	=8	=8
8BB'	.	8B'	.	8d#'	.	8b	.	I\\
4.r	.	4.r	.	4.r	.	4.r	.	.
=9	=9	=9	=9	=9	=9	=9	=9	=9
(2B	f	(2f#	f	[2f# 2dd#	f	4dd# 4ddd#	f	I
.	.	.	.	.	.	(32ccc#LLL	.	.
.	.	.	.	.	.	32bb	.	.
.	.	.	.	.	.	32aa#	.	.
.	.	.	.	.	.	32bb	.	.
.	.	.	.	.	.	32aa#	.	.
.	.	.	.	.	.	32bb	.	.
.	.	.	.	.	.	32ddd#	.	.
.	.	.	.	.	.	32bbJJJ)	.	.
=10	=10	=10	=10	=10	=10	=10	=10	=10
8c#)	p	8a#)	p	8f#] 8dd#	p	8ff#	p	V43
8r	.	8r	.	8r	.	8r	.	.
8r	.	8r	.	8r	.	8r	.	.
16.r	.	16.r	.	16.r	.	16.r	.	.
32c#	.	32e	.	32f#	.	32f#	.	.
=11	=11	=11	=11	=11	=11	=11	=11	=11
8d#L	.	8f#L	.	8f#L	.	8bL	.	I6
16.r	.	16.r	.	16.r	.	16.r	.	.
32d#Jkk	.	32f#Jkk	.	32f#Jkk	.	32bJkk	.	.
8BL	.	8d#L	.	8bL	.	8dd#L	.	I
16.r	.	16.r	.	16.r	.	16.r	.	.
32BJkk	.	32d#Jkk	.	32bJkk	.	32dd#Jkk	.	.
=12	=12	=12	=12	=12	=12	=12	=12	=12
8F#	.	8c#	.	8a#	.	8ff#	.	V\\
4.r	.	4.r	.	4.r	.	4.r	.	.
=13	=13	=13	=13	=13	=13	=13	=13	=13
!	!	!	!LO:DY:a	!	!LO:DY:a	!	!	!
(2BB	f	[2F#	f f	(2d#	f	4B 4f# 4dd# 4ddd#	.	I
.	.	.	.	.	.	(32ccc#LLL	.	.
.	.	.	.	.	.	32bb	.	.
.	.	.	.	.	.	32aa#	.	.
.	.	.	.	.	.	32bb	.	.
.	.	.	.	.	.	32aa#	.	.
.	.	.	.	.	.	32bb	.	.
.	.	.	.	.	.	32ddd#	.	.
.	.	.	.	.	.	32bbJJJ)	.	.
=14	=14	=14	=14	=14	=14	=14	=14	=14
4C#)	p	4F#]	p	4e)	p	4ff#	p	V43
8r	.	8r	.	8r	.	8r	.	.
16.r	.	16.r	.	16.r	.	16.r	.	.
32C#	.	32F#	.	32e	.	32ff#	.	.
=15	=15	=15	=15	=15	=15	=15	=15	=15
8D#L	.	8F#L	.	8f#L	.	8bbL	.	I6
16.r	.	16.r	.	16.r	.	16.r	.	.
32D#Jkk	.	32F#Jkk	.	32f#Jkk	.	32bbJkk	.	.
8BBL	.	8BL	.	8dd#L	.	8ddd#L	.	I
16.r	.	16.r	.	16.r	.	16.r	.	.
32BBJkk	.	32BJkk	.	32dd#Jkk	.	32ddd#Jkk	.	.
=16	=16	=16	=16	=16	=16	=16	=16	=16
8FF#	.	8A#	.	8cc#	.	8fff#	.	V
4.r	.	4.r	.	4.r	.	4.r	.	.
=17	=17	=17	=17	=17	=17	=17	=17	=17
!LO:TX:b:Bi:t=cresc.	!	!	!	!LO:TX:b:Bi:t=cresc.	!	!LO:TX:b:Bi:t=cresc.	!	!
4g#	.	2r	.	2b	.	2ee	.	iv6
4gX	.	.	.	.	.	.	.	.
=18	=18	=18	=18	=18	=18	=18	=18	=18
!	!LO:DY:a	!	!LO:DY:a	!	!LO:DY:a	!	!	!
4.f#	f f >	4.a#	f >	4.cc#	f >	[4eee	>	V7
.	.	.	.	.	.	(32eeeLLL]	.	.
.	.	.	.	.	.	32ddd#	.	.
.	.	.	.	.	.	32ccc#	.	.
.	.	.	.	.	.	32bb	.	.
8A#	]]	8f#	]]	8cc#	]]	32aa#	.	V65
.	.	.	.	.	.	32gg#	.	.
.	.	.	.	.	.	32ff#	.	.
.	.	.	.	.	.	32eeJJJ)	]]	.
=19	=19	=19	=19	=19	=19	=19	=19	=19
!	!LO:DY:a	!	!	!	!LO:DY:a	!	!	!
8BL	p p	8bL	.	8dd#L	p p	8dd#L	.	I
16.r	.	16.r	.	16.r	.	16.r	.	.
32G#Jkk	.	32d#Jkk	.	32bJkk	.	32bbJkk	.	vi
8EL	.	8g#L	.	8bL	.	8cc#L	.	ii65
16.r	.	16.r	.	16.r	.	16.r	.	.
32F#Jkk	.	32eJkk	.	32a#Jkk	.	32ff#Jkk	.	V7
=20	=20	=20	=20	=20	=20	=20	=20	=20
8B	.	8d#	.	8b	.	8b	.	I\\
4.r	.	4.r	.	4.r	.	4.r	.	.
=21	=21	=21	=21	=21	=21	=21	=21	=21
4F#'	f	4F#'	f	4f#'	f	4f#'	f	V
4F#'	.	4F#'	.	4f#'	.	4f#'	.	.
=22	=22	=22	=22	=22	=22	=22	=22	=22
!	!LO:DY:a	!	!LO:DY:a	!	!LO:DY:a	!	!	!
4.B	sf sf	4.B	p p	4.b	sf p	4.b	sf	I
8r	.	8B	.	(16d#LL	.	(16dd#LL	.	.
.	.	.	.	16f#JJ)	.	16bJJ)	.	.
=23	=23	=23	=23	=23	=23	=23	=23	=23
2r	.	8c#'L	.	(16eLL	.	(16bLL	.	V43
.	.	.	.	16f#)	.	16a#)	.	.
.	.	8c#'J	.	(16e	.	(16cc#	.	.
.	.	.	.	16f#JJ)	.	16a#JJ)	.	.
.	.	8B'L	.	(16d#LL	.	(16cc#LL	.	I
.	.	.	.	16f#)	.	16b)	.	.
.	.	8B'J	.	(16d#	.	(16dd#	.	.
.	.	.	.	16f#JJ)	.	16bJJ)	.	.
=24	=24	=24	=24	=24	=24	=24	=24	=24
2r	.	8A#	.	(16c#LL	.	8ff#	.	V6
.	.	.	.	16f#JJ)	.	.	.	.
.	.	8r	.	8r	.	8r	.	.
.	.	4r	.	4r	.	4r	.	.
=25	=25	=25	=25	=25	=25	=25	=25	=25
!	!	!	!LO:DY:a	!	!	!	!	!
4D#'	f	4d#'	f f	4d#'	.	2r	.	V/vi
4D#'	.	4d#'	.	4d#'	.	.	.	.
=26	=26	=26	=26	=26	=26	=26	=26	=26
!	!LO:DY:a	!	!	!	!	!	!	!
4.G#	sf p p	4.g#	sf	4.g#	sf p	4r	.	vi
.	.	.	.	.	.	8r	.	.
8r	.	8g#'	.	(16bLL	.	(16bbLL	.	.
.	.	.	.	16dd#JJ)	.	16gg#JJ)	.	.
=27	=27	=27	=27	=27	=27	=27	=27	=27
2r	.	8a#'L	.	(16cc#LL	.	(16gg#LL	.	V43/vi
.	.	.	.	16dd#)	.	16ff##X)	.	.
.	.	8a#'J	.	(16cc#	.	(16aa#	.	.
.	.	.	.	16dd#JJ)	.	16ff##JJ)	.	.
.	.	8g#'L	.	(16bLL	.	(16aa#LL	.	vi
.	.	.	.	16dd#)	.	16gg#)	.	.
.	.	8g#'J	.	(16b	.	(16bb	.	.
.	.	.	.	16dd#JJ)	.	16gg#JJ)	.	.
=28	=28	=28	=28	=28	=28	=28	=28	=28
8r	p	8f##X	.	(16a#LL	.	4ddd#	.	V6/vi
.	.	.	.	16dd#JJ)	.	.	.	.
8D#'L	.	4r	.	4r	.	.	.	.
8G#'J	.	.	.	.	.	8r	.	V.ii
8r	.	8g#	.	(16bLL	.	(16bbLL	.	.
.	.	.	.	16dd#JJ)	.	16gg#JJ)	.	.
=29	=29	=29	=29	=29	=29	=29	=29	=29
2r	.	8g#'L	.	(16bLL	.	(16ff#LL	.	V43
.	.	.	.	16cc#)	.	16ee#X)	.	.
.	.	8g#'J	.	(16b	.	(16gg#	.	.
.	.	.	.	16cc#JJ)	.	16ee#JJ)	.	.
.	.	8f#'L	.	(16a#LL	.	(16gg#LL	.	I
.	.	.	.	16cc#)	.	16ff#)	.	.
.	.	8f#'J	.	(16a#	.	(16aa#	.	.
.	.	.	.	16cc#JJ)	.	16ff#JJ)	.	.
=30	=30	=30	=30	=30	=30	=30	=30	=30
8r	.	8e#X	.	(16g#LL	.	4ccc#	.	V6
.	.	.	.	16cc#JJ)	.	.	.	.
8C#'L	.	4r	.	4r	.	.	.	.
8F#'J	.	.	.	.	.	8r	.	i
8r	.	8f#	.	(16aLL	.	(16aaLL	.	.
.	.	.	.	16cc#JJ)	.	16ff#JJ)	.	.
=31	=31	=31	=31	=31	=31	=31	=31	=31
2r	.	8g#'L	.	(16bLL	.	(16ff#LL	.	V43
.	.	.	.	16cc#)	.	16ee#X)	.	.
.	.	8g#'J	.	(16b	.	(16gg#	.	.
.	.	.	.	16cc#JJ)	.	16ee#JJ)	.	.
.	.	8f#'L	.	(16aLL	.	(16gg#LL	.	i
.	.	.	.	16cc#)	.	16ff#)	.	.
.	.	8f#'J	.	(16a	.	(16aa	.	.
.	.	.	.	16cc#JJ)	.	16ff#JJ)	.	.
=32	=32	=32	=32	=32	=32	=32	=32	=32
!LO:TX:b:Bi:t=cresc.	!	!LO:TX:b:Bi:t=cresc.	!	!LO:TX:b:Bi:t=cresc.	!	!LO:TX:b:Bi:t=cresc.	!	!
8C#	.	16e#X'LL	.	16g#'LL	.	16ccc#LL	.	V
.	.	(16e#	.	(16g#	.	16cc#J	.	.
8r	.	16c#	.	16e#X	.	8.ccc#J	.	i
.	.	16e#JJ)	.	16g#JJ)	.	.	.	.
8F#	.	16f#'LL	.	16a'LL	.	.	.	.
.	.	(16f#	.	(16a	.	16cc#KL	.	.
8r	.	16c#	.	16f#	.	[8ccc#J	.	.
.	.	16f#JJ)	.	16aJJ)	.	.	.	.
=33	=33	=33	=33	=33	=33	=33	=33	=33
8C#	.	16e#X'LL	.	16g#'LL	.	16ccc#LL]	.	V
.	.	(16e#	.	(16gg#	.	16cc#J	.	.
8r	.	16g#	.	16ee#X	.	8.ccc#J	.	i
.	.	16e#JJ)	.	16gg#JJ)	.	.	.	.
8F#	.	16f#'LL	.	16aa'LL	.	.	.	.
.	.	(16f#	.	(16aa	.	16cc#KL	.	.
8r	.	16a	.	16ff#	.	[8ccc#J	.	.
.	.	16f#JJ)	.	16aaJJ)	.	.	.	.
=34	=34	=34	=34	=34	=34	=34	=34	=34
!	!	!	!	!	!LO:DY:a	!	!	!
4C#	f	4e#X	f	4gg#	f f	24ccc#LL]	.	V
.	.	.	.	.	.	24cc#'	.	.
.	.	.	.	.	.	24ee#X'JJ	.	.
.	.	.	.	.	.	24gg#'LL	.	.
.	.	.	.	.	.	24ccc#'	.	.
.	.	.	.	.	.	24eee#X'JJ	.	.
8r	.	8r	.	8r	.	24ggg#'LL	.	.
.	.	.	.	.	.	24eee#'	.	.
.	.	.	.	.	.	24ccc#'JJ	.	.
24C#'LL	.	24c#'LL	.	24c#'LL	.	24gg#'LL	.	.
24E#X	.	24e#	.	24e#X	.	24ee#'	.	.
24G#JJ	.	24g#JJ	.	24g#JJ	.	24cc#'JJ	.	.
=35	=35	=35	=35	=35	=35	=35	=35	=35
!	!	!	!	!	!LO:DY:a	!	!	!
4c#	.	4cc#	.	4cc#	p	4c#	.	V\\
4r	.	4r	.	4r	.	8r	.	.
.	.	.	.	.	.	8cc#	.	.
=36	=36	=36	=36	=36	=36	=36	=36	=36
4f#'	p	4cc#'	p	4r	p	4aa#'	.	I
4b'	.	4cc#'	.	4ee#X'	.	4gg#'	.	V2
=37	=37	=37	=37	=37	=37	=37	=37	=37
4.a#	sf	4.cc#	sf	4.ff#	sf	4.ccc#	sf	I6
8e#X	p	8g#	p	8ddX	p	8bb	p	viio7
=38	=38	=38	=38	=38	=38	=38	=38	=38
8f#'L	.	8a#'L	.	8cc#'L	.	8aa#'L	.	I
8c##X'J	.	8e#X'J	.	8b'J	.	8gg#'J	.	#viio7/vi
8d#'L	.	8f#'L	.	8a#'L	.	8ff#'L	.	vi
8B#X'J	.	8f#'J	.	8g#'J	.	8gg#'J	.	V65/V
=39	=39	=39	=39	=39	=39	=39	=39	=39
8c#	.	8e#X	.	8g#	.	16cc#'LL	.	V
.	.	.	.	.	.	16cc#'	.	.
4.r	.	4.r	.	4.r	.	16dd#'	.	.
.	.	.	.	.	.	16ee#X'JJ	.	.
.	.	.	.	.	.	16ff#'LL	.	.
.	.	.	.	.	.	16ff##X'	.	.
.	.	.	.	.	.	16gg#'	.	.
.	.	.	.	.	.	16aa#'JJ	.	.
=40	=40	=40	=40	=40	=40	=40	=40	=40
4g#'	.	4dd#'	.	4r	.	4bb'	.	ii
4cc#'	.	4dd#'	.	4ff##X'	.	4aa#'	.	V2/ii
=41	=41	=41	=41	=41	=41	=41	=41	=41
4.b	sf	4.dd#	sf	4.gg#	sf	4.ddd#	sf	ii6
(8b	.	[8cc#	.	(8gg#	.	(8eee#Xt	.	V2
.	.	.	.	.	.	(16qqddd#/LL	.	.
.	.	.	.	.	.	16qqeee#/JJ)	.	.
=42	=42	=42	=42	=42	=42	=42	=42	=42
8a#'L)	.	8cc#L]	.	8ff#'L)	.	8fff#'L)	.	I6
8b'J	.	8dd#'J	.	8gg#'J	.	8ggg#'J	.	ii6
8cc#'L	.	8ff#'L	.	8aa#'L	.	8ccc#'L	.	V(64)
8c#'J	.	8gg#'J	.	8bb'J	.	8eee#X'J	.	V7
=43	=43	=43	=43	=43	=43	=43	=43	=43
4f#	.	4ff#	.	16aa#LL	.	8fff#	.	I\\
.	.	.	.	16c#'	.	.	.	.
.	.	.	.	16d#'	.	4.r	.	.
.	.	.	.	16e#X'JJ	.	.	.	.
4r	.	4r	.	16f#'LL	.	.	.	.
.	.	.	.	16f##X'	.	.	.	.
.	.	.	.	16g#'	.	.	.	.
.	.	.	.	16a'JJ	.	.	.	.
=44	=44	=44	=44	=44	=44	=44	=44	=44
4F#'	p	4c#'	p	4a#'	p	16r	p	I
.	.	.	.	.	.	16cc#'LL	.	.
.	.	.	.	.	.	16dd#'	.	.
.	.	.	.	.	.	16ee#X'JJ	.	.
4B'	.	4c#'	.	4g#'	.	16ff#'LL	.	V2
.	.	.	.	.	.	16gg#'	.	.
.	.	.	.	.	.	16aa#'	.	.
.	.	.	.	.	.	16bb'JJ	.	.
=45	=45	=45	=45	=45	=45	=45	=45	=45
4.A#	sf	4.c#	sf	4.cc#	sf	16ccc#LL	.	I6
.	.	.	.	.	.	16ccc#	.	.
.	.	.	.	.	.	16ddd#	.	.
.	.	.	.	.	.	16eee#XJJ	.	.
.	.	.	.	.	.	16fff#LL	.	.
.	.	.	.	.	.	16ggg#	.	.
8G#'	.	8c#'	.	8b'	.	16aaa#	.	V43
.	.	.	.	.	.	16bbbJJ	.	.
=46	=46	=46	=46	=46	=46	=46	=46	=46
8F#'L	.	8c#'L	.	8a#'L	.	16cccc#LL	.	I
.	.	.	.	.	.	16cccc#	.	.
8E#X'J	.	8c#'J	.	8g#'J	.	16cccc#	.	V6
.	.	.	.	.	.	16cccc#JJ	.	.
8D#'L	.	8c#'L	.	8f#'L	.	16cccc#LL	.	vi7
.	.	.	.	.	.	16bbb#X	.	.
8GG#'J	.	8G#'J	.	8f#'J	.	16aaa#	.	V/V
.	.	.	.	.	.	16bbb#JJ	.	.
=47	=47	=47	=47	=47	=47	=47	=47	=47
8C#	.	8c#	.	16e#X'LL	.	8cccc#	.	V\\
.	.	.	.	16c#'	.	.	.	.
4.r	.	4.r	.	16d#'	.	4.r	.	.
.	.	.	.	16e#'JJ	.	.	.	.
.	.	.	.	16f#'LL	.	.	.	.
.	.	.	.	16f##X'	.	.	.	.
.	.	.	.	16g#'	.	.	.	.
.	.	.	.	16a#'JJ	.	.	.	.
=48	=48	=48	=48	=48	=48	=48	=48	=48
4G#'	.	4d#'	.	4b'	.	16r	.	ii
.	.	.	.	.	.	16dd#'LL	.	.
.	.	.	.	.	.	16ee#X'	.	.
.	.	.	.	.	.	16ff##X'JJ	.	.
4c#'	.	4d#'	.	4a#'	.	16gg#'LL	.	V2/ii
.	.	.	.	.	.	16aa#'	.	.
.	.	.	.	.	.	16bb'	.	.
.	.	.	.	.	.	16ccc#'JJ	.	.
=49	=49	=49	=49	=49	=49	=49	=49	=49
4.B	sf	4.d#	sf	4.dd#	sf	16ddd#LL	.	ii6
.	.	.	.	.	.	16ddd#	.	.
.	.	.	.	.	.	16eee#X	.	.
.	.	.	.	.	.	16fff##XJJ	.	.
.	.	.	.	.	.	16ggg#LL	.	.
.	.	.	.	.	.	16aaa#	.	.
8A#	.	8d#	.	8cc#	.	16bbb#X	.	V43/ii
.	.	.	.	.	.	16cccc##XJJ	.	.
=50	=50	=50	=50	=50	=50	=50	=50	=50
!LO:TX:b:Bi:t=decresc.	!	!LO:TX:b:Bi:t=decresc.	!	!LO:TX:b:Bi:t=decresc.	!	!LO:TX:b:Bi:t=decresc.	!	!
8G#'L	.	8d#'L	.	8b'L	.	16dddd#LL	.	iii.iv
.	.	.	.	.	.	16ddd#	.	.
8A#'J	.	8d#'J	.	8a#'J	.	16ddd#	.	V43/iv
.	.	.	.	.	.	16ddd#JJ	.	.
8B'L	.	8f#'L	.	8g##X'L	.	16ddd#LL	.	.Ger6
.	.	.	.	.	.	16ddd#	.	.
8B'J	.	8d#'J	.	8g##'J	.	16ddd#	.	.
.	.	.	.	.	.	16ddd#JJ	.	.
=51	=51	=51	=51	=51	=51	=51	=51	=51
8A#	p	8e#X	p	8a#	p	8ccc##X	p	V\\
8r	.	4r	.	8r	.	16.r	.	.
.	.	.	.	.	.	32a#	.	.
16r	.	.	.	(8ff#L	.	(8aa#L	.	.
16AA#'LL	.	.	.	.	.	.	.	.
16BB#X'	.	(8A#	.	[8ee#XJ)	.	[8gg#J)	.	.
16C##X'JJ	.	.	.	.	.	.	.	.
=52	=52	=52	=52	=52	=52	=52	=52	=52
8D#L	.	4.a#)	.	(8ee#L]	.	(8gg#L]	.	i(+4+2)
8D#J	.	.	.	16dd#Jk)	.	16ff#L)	.	i
.	.	.	.	16r	.	32r	.	.
.	.	.	.	.	.	32a#JJk	.	.
16r	.	.	.	(8ff#L	.	(8aa#L	.	V(64)
16AA#'LL	.	.	.	.	.	.	.	.
16BB#X'	.	(8A#	.	[8ee#XJ)	.	[8gg#J)	.	V7
16C##X'JJ	.	.	.	.	.	.	.	.
=53	=53	=53	=53	=53	=53	=53	=53	=53
8D#L	.	4.a#)	.	(8ee#L]	.	(8gg#L]	.	i(+4+2)
8D#J	.	.	.	16dd#Jk)	.	16ff#L)	.	i\\
.	.	.	.	16r	.	32r	.	.
.	.	.	.	.	.	32a#JJk	.	.
!	!	!	!	!LO:TX:b:Bi:t=cresc.	!	!LO:TX:b:Bi:t=cresc.	!	!
16r	.	.	.	(8ff#L	.	(8aa#L	.	V(64)
!LO:TX:b:Bi:t=cresc.	!	!	!	!	!	!	!	!
16AA#'LL	.	.	.	.	.	.	.	.
!	!	!LO:TX:b:Bi:t=cresc.	!	!	!	!	!	!
16BB#X'	.	(8A#	.	[8ee#XJ)	.	[8gg#J)	.	V7
16C##X'JJ	.	.	.	.	.	.	.	.
=54	=54	=54	=54	=54	=54	=54	=54	=54
8D#L	.	4a#)	.	(8ee#L]	.	(8gg#L]	.	i(+4+2)
8D#J	.	.	.	8dd#J)	.	8ff#J)	.	i
4c#	sf	4a#	sf	4ee	sf	4ff##X	sf	V.#viio43/ii
=55	=55	=55	=55	=55	=55	=55	=55	=55
(8BL	.	(8bL	.	8dd#L	.	(16.gg#LL	.	ii6
.	.	.	.	.	.	32dd#K	.	.
16.G#L	.	16.BL	.	(16.dd#L	.	16.bb	.	ii
32BJJk)	.	32d#JJk)	.	32bJJk)	.	32gg#JJk)	.	.
8c#L	.	8c#L	.	8a#L	.	8ff#L	.	V(64)
8C#J	.	8c#J	.	8bJ	.	8ee#XJ	.	V7
.	.	.	.	.	.	(16qqdd##X/LL	.	.
.	.	.	.	.	.	16qqee#/JJ)	.	.
=56	=56	=56	=56	=56	=56	=56	=56	=56
4F#	.	8c#	.	8a#	.	8ff#	.	I\\
.	.	8r	.	16.r	.	4r	.	iii.V7
.	.	.	.	32a#	.	.	.	.
16r	.	(8f#L	.	(8aa#L	.	.	.	.
16AA#'LL	.	.	.	.	.	.	.	.
16BB#X'	.	[8e#XJ)	.	[8gg#J)	.	[8aa#	.	.
16C##X'JJ	.	.	.	.	.	.	.	.
=57	=57	=57	=57	=57	=57	=57	=57	=57
8D#L	.	(8e#L]	.	(8gg#L]	.	(16aa#LL]	.	i(4+2)
.	.	.	.	.	.	16ccc##X	.	.
8D#J	.	16d#Jk)	.	16ff#L)	.	16ddd#	.	i
.	.	16r	.	32r	.	16bbJJ)	.	.
.	.	.	.	32a#JJk	.	.	.	.
!	!	!LO:TX:b:Bi:t=cresc.	!	!LO:TX:b:Bi:t=cresc.	!	!LO:TX:b:Bi:t=cresc.	!	!
16r	.	(8f#L	.	(8aa#L	.	8aa#'L	.	V(64)
!LO:TX:b:Bi:t=cresc.	!	!	!	!	!	!	!	!
16AA#'LL	.	.	.	.	.	.	.	.
16BB#X'	.	[8e#XJ)	.	[8gg#J)	.	[8aa#J	.	V7
16C##X'JJ	.	.	.	.	.	.	.	.
=58	=58	=58	=58	=58	=58	=58	=58	=58
8D#L	.	(8e#L]	.	(8gg#L]	.	(16aa#LL]	.	i(4+2)
.	.	.	.	.	.	16ccc##X	.	.
8D#J	.	16d#Jk)	.	16ff#L)	.	16ddd#	.	i\\
.	.	16r	.	32r	.	16bbJJ)	.	.
.	.	.	.	32a#JJk	.	.	.	.
16r	.	(8f#L	.	(8aa#L	.	8aa#'L	.	V(64)
16AA#'LL	.	.	.	.	.	.	.	.
16BB#X'	.	[8e#XJ)	.	[8gg#J)	.	[8aa#J	.	V7
16C##X'JJ	.	.	.	.	.	.	.	.
=59	=59	=59	=59	=59	=59	=59	=59	=59
8D#L	.	(8e#L]	.	(8gg#L]	.	(16aa#LL]	.	i(4+2)
.	.	.	.	.	.	16ddd#	.	.
8D#J	.	16d#Jk)	.	8ff#J)	.	16ccc##X	.	i
.	.	16r	.	.	.	16ddd#JJ)	.	.
(4C#	sf	(4A#	sf	(4ff##X	sf	[4eee	sf	V.#viio43/ii
=60	=60	=60	=60	=60	=60	=60	=60	=60
16BBLL)	.	16BLL)	.	8gg#)	.	(16eeeLL]	.	ii6
(16GG#	.	(16B	.	.	.	16ddd#	.	.
16AA#	.	16c#	.	16r	.	32ccc#L	.	.
.	.	.	.	.	.	32bb	.	.
16BBJJ)	.	16d#JJ)	.	16dd#	.	32aa#	.	.
.	.	.	.	.	.	32gg#JJJ)	.	.
8C#L	.	8c#L	.	8a#L	.	8ff#L	.	V(64)
8C#J	.	8c#J	.	8bJ	.	8ee#XtJ	.	V7
.	.	.	.	.	.	(16qqdd#/LL	.	.
.	.	.	.	.	.	16qqee#/JJ)	.	.
=61	=61	=61	=61	=61	=61	=61	=61	=61
!	!LO:DY:a	!	!	!	!	!	!	!
8FF#	p p	16F#'LL	.	8a#	p	8ff#	.	I\\
.	.	(16c#	.	.	.	.	.	.
8r	.	16f#	.	8r	.	4.r	.	V2
.	.	16c#JJ)	.	.	.	.	.	.
8B	.	16r	.	24g#'LL	.	.	.	.
.	.	.	.	24a#'	.	.	.	.
.	.	(16c#LL	.	.	.	.	.	.
.	.	.	.	24b'	.	.	.	.
8r	.	16e#X	.	24cc#'	.	.	.	.
.	.	.	.	24dd#'	.	.	.	.
.	.	16c#JJ)	.	.	.	.	.	.
.	.	.	.	24ee#X'JJ	.	.	.	.
=62	=62	=62	=62	=62	=62	=62	=62	=62
8A#	.	16r	.	(16.ff#LL	.	2r	.	V65
.	.	(16c#LL	.	.	.	.	.	.
.	.	.	.	32cc#JK)	.	.	.	.
8r	.	16f#	.	8aa#'J	.	.	.	.
.	.	16c#JJ)	.	.	.	.	.	.
8E#X	.	16r	.	(16.gg#LL	.	.	.	.
.	.	(16c#LL	.	.	.	.	.	.
.	.	.	.	32cc#JK)	.	.	.	.
8r	.	16g#	.	8bb'J	.	.	.	.
.	.	16c#JJ)	.	.	.	.	.	.
=63	=63	=63	=63	=63	=63	=63	=63	=63
8F#	.	16r	.	(16.aa#LL	.	4r	p	I
.	.	(16c#LL	.	.	.	.	.	.
.	.	.	.	32cc#JK)	.	.	.	.
8r	.	16a#	.	8ccc#'J	.	.	.	.
.	.	16c#JJ)	.	.	.	.	.	.
8B	.	16e#X'LL	.	16g#'LL	.	24gg#'LL	.	V2
.	.	.	.	.	.	24aa#'	.	.
.	.	16c#'	.	16cc#'	.	.	.	.
.	.	.	.	.	.	24bb'	.	.
8r	.	16e#'	.	16g#'	.	24ccc#'	.	.
.	.	.	.	.	.	24ddd#'	.	.
.	.	16c#'JJ	.	16cc#'JJ	.	.	.	.
.	.	.	.	.	.	24eee#X'JJ	.	.
=64	=64	=64	=64	=64	=64	=64	=64	=64
8A#	.	16f#'LL	.	16a#'LL	.	16fff#LL	.	I6
.	.	16c#'	.	16cc#'	.	(16fff#	.	.
8r	.	16f#'	.	16a#'	.	16ccc#	.	.
.	.	16c#'JJ	.	16cc#'JJ	.	16aaa#JJ)	.	.
8C#	.	16e#X'LL	.	16b'LL	.	16ggg#LL	.	V7
.	.	16c#'	.	16cc#'	.	(16ggg#	.	.
8r	.	16g#'	.	16b'	.	16eee#X	.	.
.	.	16c#'JJ	.	16cc#'JJ	.	16bbbJJ)	.	.
=65	=65	=65	=65	=65	=65	=65	=65	=65
8FF#	.	16f#'LL	.	16a#'LL	.	16aaa#LL	.	I
.	.	16c#'	.	16cc#'	.	(16aaa#	.	.
8r	.	16f#'	.	16a#'	.	16fff#	.	.
.	.	16c#'JJ	.	16cc#'JJ	.	16cccc#JJ)	.	.
8B	.	16r	.	24g#'LL	.	4r	.	V2
.	.	.	.	24a#'	.	.	.	.
.	.	(16c#LL	.	.	.	.	.	.
.	.	.	.	24b'	.	.	.	.
8r	.	16e#X	.	24cc#'	.	.	.	.
.	.	.	.	24dd#'	.	.	.	.
.	.	16c#JJ)	.	.	.	.	.	.
.	.	.	.	24ee#X'JJ	.	.	.	.
=66	=66	=66	=66	=66	=66	=66	=66	=66
8A#	.	16r	.	16ff#'LL	.	2r	.	V65
.	.	(16c#LL	.	(16ff#	.	.	.	.
8r	.	16f#	.	16cc#	.	.	.	.
.	.	16c#JJ)	.	16aa#JJ)	.	.	.	.
8E#X	.	16r	.	16gg#'LL	.	.	.	.
.	.	(16c#LL	.	(16gg#	.	.	.	.
8r	.	16g#	.	16cc#	.	.	.	.
.	.	16c#JJ)	.	16bbJJ)	.	.	.	.
=67	=67	=67	=67	=67	=67	=67	=67	=67
4F#	.	16r	.	16aa#'LL	.	4r	.	I\\
.	.	(16c#LL	.	(16aa#	.	.	.	.
.	.	16a#	.	16cc#	.	.	.	.
.	.	16c#JJ)	.	16ccc#JJ)	.	.	.	.
4B	.	16e#X'LL	.	16g#'LL	.	24gg#'LL	.	V2
.	.	.	.	.	.	24aa#'	.	.
.	.	16c#'	.	16cc#'	.	.	.	.
.	.	.	.	.	.	24bb'	.	.
.	.	16e#'	.	16g#'	.	24ccc#'	.	.
.	.	.	.	.	.	24ddd#'	.	.
.	.	16c#'JJ	.	16cc#'JJ	.	.	.	.
.	.	.	.	.	.	24eee#X'JJ	.	.
=68	=68	=68	=68	=68	=68	=68	=68	=68
4A#	.	8cc#	.	8a#L	.	24fff#'LL	.	I6
.	.	.	.	.	.	24ggg#'	.	.
.	.	.	.	.	.	24fff#'	.	.
.	.	4.r	.	8aa#J	.	24ccc##X'	.	.
.	.	.	.	.	.	24ddd#'	.	.
.	.	.	.	.	.	24ccc##'JJ	.	.
4r	.	.	.	8bb'L	.	24ddd#'LL	.	.
.	.	.	.	.	.	24eee'	.	.
.	.	.	.	.	.	24ddd#'	.	.
.	.	.	.	8ff##X'J	.	24aa#'	.	V6/ii
.	.	.	.	.	.	24bb'	.	.
.	.	.	.	.	.	24aa#'JJ	.	.
=69	=69	=69	=69	=69	=69	=69	=69	=69
2r	.	2r	.	8gg#'L	.	24bbLL	.	ii
.	.	.	.	.	.	24ccc#	.	.
.	.	.	.	.	.	24bb	.	.
.	.	.	.	8dd##X'J	.	24ff##X	.	.
.	.	.	.	.	.	24gg#	.	.
.	.	.	.	.	.	24ff##JJ	.	.
.	.	.	.	8ee#X'L	.	24gg#LL	.	V6
.	.	.	.	.	.	24aa#	.	.
.	.	.	.	.	.	24gg#	.	.
.	.	.	.	8dd#'J	.	24ff#	.	.
.	.	.	.	.	.	24gg#	.	.
.	.	.	.	.	.	24ff#JJ	.	.
=70	=70	=70	=70	=70	=70	=70	=70	=70
8r	.	8r	.	8cc#'L	.	24ee#XLL	.	V7
.	.	.	.	.	.	24ff#	.	.
.	.	.	.	.	.	24ee#	.	.
8C#'	.	8E#X'	.	8b'J	.	24dd#	.	.
.	.	.	.	.	.	24ee#	.	.
.	.	.	.	.	.	24dd#JJ	.	.
8D#'L	.	8F#'L	.	8a#'L	.	24cc#LL	.	.
.	.	.	.	.	.	24dd#	.	.
.	.	.	.	.	.	24cc#	.	.
8E#X'J	.	8G#'J	.	8g#'J	.	24b	.	V65
.	.	.	.	.	.	24cc#	.	.
.	.	.	.	.	.	24bJJ	.	.
=71	=71	=71	=71	=71	=71	=71	=71	=71
!LO:TX:b:Bi:t=cresc.	!	!LO:TX:b:Bi:t=cresc.	!	!LO:TX:b:Bi:t=cresc.	!	!LO:TX:b:Bi:t=cresc.	!	!
8F#'L	.	8A#	.	8f#	.	16a#LL	.	I
.	.	.	.	.	.	16aa#	.	.
8E'J	.	4F#	.	4f#	.	16a#	.	V2/IV
.	.	.	.	.	.	16aa#JJ	.	.
8D#'L	.	.	.	.	.	16bLL	.	IV6
.	.	.	.	.	.	16bb	.	.
8AA#'J	.	(8e	.	[8f#	.	16cc#	.	I6
.	.	.	.	.	.	16ccc#JJ	.	.
=72	=72	=72	=72	=72	=72	=72	=72	=72
8BB'L	.	8d#L)	.	8f#]	.	16dd#LL	.	IV
.	.	.	.	.	.	16ddd#	.	.
8GG#'J	.	8B'	.	4cc#	.	16ee#X	.	V43
.	.	.	.	.	.	16eee#XJJ	.	.
8AA#'L	.	8c#'	.	.	.	16ff#LL	.	I6
.	.	.	.	.	.	16fff#	.	.
8EE#X'J	.	(8bJ	.	[8cc#	.	16gg#	.	V65
.	.	.	.	.	.	16ggg#JJ	.	.
=73	=73	=73	=73	=73	=73	=73	=73	=73
8FF#'L	.	8a#)	.	8cc#]	.	16aa#KL	.	I
.	.	.	.	.	.	8aaa#'	.	.
8C##X'J	.	4f#	.	4a#	.	.	.	.
.	.	.	.	.	.	8aaa#'	.	V6/vi
8D#'L	.	.	.	.	.	.	.	.
.	.	.	.	.	.	8aaa#'	.	vi
8BB#X'J	.	[8f#	.	[8a#	.	.	.	.
.	.	.	.	.	.	[16aaa#Jk	.	#vii%7/V
=74	=74	=74	=74	=74	=74	=74	=74	=74
8C#'L	.	8f#]	.	8a#]	.	16aaa#KL]	.	V(64)
.	.	.	.	.	.	8aaa#	.	.
8C##X'J	.	4f#	.	4a#	.	.	.	.
.	.	.	.	.	.	[16aaa#Jk	.	V6/vi
8D#'L	.	.	.	.	.	16aaa#KL]	.	.
.	.	.	.	.	.	8aaa#	.	vi
8BB#X'J	.	[8f#	.	[8a#	.	.	.	.
.	.	.	.	.	.	[16aaa#Jk	.	#vii%7/V
=75	=75	=75	=75	=75	=75	=75	=75	=75
[2C#	.	8f#]	.	8a#]	.	12.aaa#L]	sf	V(64)
.	.	(8f#L	sf	(8ff#L	sf	(24aa#L	.	.
.	.	.	.	.	.	24ff#	.	.
.	.	.	.	.	.	24aa#JJ)	.	.
.	.	8e#X	.	8ee#X	.	(24bbLL	.	V[V7
.	.	.	.	.	.	24gg#	.	.
.	.	.	.	.	.	24bb)	.	.
.	.	8d#J	.	8dd#J	.	(24bb#X	.	#viio7/V
.	.	.	.	.	.	24gg##X	.	.
.	.	.	.	.	.	24bb#JJ)	.	.
=76	=76	=76	=76	=76	=76	=76	=76	=76
8C#]	.	8c#')	.	8cc#')	.	24ccc#LL	.	V(64)]
.	.	.	.	.	.	24aa#	.	.
.	.	.	.	.	.	24ccc#	.	.
!	!LO:DY:a	!	!LO:DY:a	!	!LO:DY:a	!	!	!
(8F#L	sf sf	(8f#L	sf	(8f#L	sf	24aa#	.	I
.	.	.	.	.	.	24ff#	.	.
.	.	.	.	.	.	24aa#JJ	.	.
8E#X	.	8e#X	.	8e#X	.	24bbLL	.	V65
.	.	.	.	.	.	24gg#	.	.
.	.	.	.	.	.	24bb	.	.
8D#J	.	8d#J	.	8d#J	.	24bb#X	.	#viio65/V
.	.	.	.	.	.	24gg##X	.	.
.	.	.	.	.	.	24bb#JJ	.	.
=77	=77	=77	=77	=77	=77	=77	=77	=77
8C#')	.	8c#')	.	8c#')	.	24ccc#LL	.	V(64)
.	.	.	.	.	.	24aa#	.	.
.	.	.	.	.	.	24ccc#JJ	.	.
8r	.	8r	.	8r	.	8r	.	.
4r	.	4r	.	4r	.	8r	.	.
.	.	.	.	.	.	8cc#	.	V
=78	=78	=78	=78	=78	=78	=78	=78	=78
2r	.	8r	p	8r	p	(4ff#	.	I
.	.	8dd#'	.	4ff#	.	.	.	.
.	.	8b'L	.	.	.	16gg#LL	.	ii65
.	.	.	.	.	.	16aa#	.	.
.	.	8cc#'J	.	8ee#X'	.	16bb	.	V7
.	.	.	.	.	.	16gg#JJ)	.	.
=79	=79	=79	=79	=79	=79	=79	=79	=79
2r	.	8a#'L	.	8ff#'L	.	(4ccc#	.	I
.	.	8f#'J	.	8aa#'J	.	.	.	.
.	.	4r	.	4r	.	8fff#L)	.	.
.	.	.	.	.	.	8c#J	.	.
=80	=80	=80	=80	=80	=80	=80	=80	=80
8r	p	8r	.	8r	.	(4f#	.	vi
8D#'	.	4F#	.	8a#'	.	.	.	.
8BB'L	.	.	.	8dd#'L	.	16g#LL	.	ii65
.	.	.	.	.	.	16a#	.	.
8C#'J	.	8E#X'	.	8b'J	.	16b	.	V7
.	.	.	.	.	.	16g#JJ)	.	.
=81	=81	=81	=81	=81	=81	=81	=81	=81
4FF#	.	4F#	.	4a#	.	4f#	.	I\\
4r	.	4r	.	4r	.	4r	.	.
=82:|!	=82:|!	=82:|!	=82:|!	=82:|!	=82:|!	=82:|!	=82:|!	=82:|!
2r	.	2r	.	2r	.	8cc#	p	.
.	.	.	.	.	.	8r	.	.
.	.	.	.	.	.	4r	.	.
=83	=83	=83	=83	=83	=83	=83	=83	=83
2r	.	8r	p	8r	p	(4ff#	.	v.VI
.	.	8ddX'	.	4ff#	.	.	.	.
.	.	8b'L	.	.	.	16gg#LL	.	ii65
.	.	.	.	.	.	16aa	.	.
.	.	8cc#'J	.	8ee#X'	.	16bb	.	V7
.	.	.	.	.	.	16gg#JJ)	.	.
=84	=84	=84	=84	=84	=84	=84	=84	=84
2r	.	8a'L	.	8ff#'L	f	(4ccc#	f	i6
.	.	8f#'J	.	8aa#'J	.	.	.	.
.	.	4r	.	8r	.	8fff#L)	.	i
.	.	.	.	8cc#	.	8ccc#J	.	.
=85	=85	=85	=85	=85	=85	=85	=85	=85
8r	.	8r	.	(4ff#	.	(4fff#	.	VI
8dX'	f	4f#	f	.	.	.	.	.
8B'L	.	.	.	16gg#LL	.	16ggg#LL	.	ii65
.	.	.	.	16aa	.	16aaa	.	.
8c#'J	.	8e#X'	.	16bb	.	16bbb	.	V7
.	.	.	.	16gg#JJ)	.	16ggg#JJ)	.	.
=86	=86	=86	=86	=86	=86	=86	=86	=86
8F#	.	8f#	.	8ff#	.	8fff#	.	i\\
8r	.	8r	.	8r	.	8r	.	.
4r	.	4r	.	4r	.	4r	.	.
=87	=87	=87	=87	=87	=87	=87	=87	=87
!	!	!	!LO:DY:a	!	!LO:DY:a	!	!	!
4C#'	f	4c#'	f f	4c#'	f	4c#'	.	V
4C#'	.	4c#'	.	4c#'	.	4c#'	.	.
=88	=88	=88	=88	=88	=88	=88	=88	=88
4.F#	sf	4.f#	sf	4.f#	sf	4.f#	sf	i
8F#	p	(16ALL	p	8r	.	(16aLL	p	.
.	.	16c#JJ)	.	.	.	16f#JJ)	.	.
=89	=89	=89	=89	=89	=89	=89	=89	=89
8G#'L	.	(16BLL	.	8r	pp	(16f#LL	.	V43
.	.	16c#)	.	.	.	16e#X)	.	.
.	.	.	.	(8qb#X/	.	.	.	.
8G#'J	.	(16B	.	8cc#)	.	(16g#	.	.
.	.	16c#JJ)	.	.	.	16e#JJ)	.	.
8F#'L	.	(16ALL	.	8r	.	(16g#LL	.	i
.	.	16c#)	.	.	.	16f#)	.	.
.	.	.	.	(8qb#/	.	.	.	.
8F#'J	.	(16A	.	8cc#)	.	(16a	.	.
.	.	16c#JJ)	.	.	.	16f#JJ)	.	.
=90	=90	=90	=90	=90	=90	=90	=90	=90
4C#	.	8G#	.	8r	.	8cc#	.	V
.	.	.	.	(8qb#X/	.	.	.	.
.	.	8r	.	8cc#)	.	8r	.	.
4r	.	4r	.	4r	.	4r	.	.
=91	=91	=91	=91	=91	=91	=91	=91	=91
!	!LO:DY:a	!	!	!	!	!	!	!
!	!LO:DY:a	!	!	!	!	!	!	!
4AA'	f f f	4A'	.	4a'	.	2r	.	.bIII.V
4AA'	.	4A'	.	4a'	.	.	.	.
=92	=92	=92	=92	=92	=92	=92	=92	=92
4.DX	sf p	4.dX	sf p	4.ddX	sf p	4r	.	I
.	.	.	.	.	.	8r	.	.
8r	.	8d	.	(16f#LL	.	(16ff#LL	.	.
.	.	.	.	16aJJ)	.	16ddXJJ)	.	.
=93	=93	=93	=93	=93	=93	=93	=93	=93
2r	.	8e'L	.	(16gXLL	.	(16ddXLL	.	V43
.	.	.	.	16a)	.	16cc#)	.	.
.	.	8e'J	.	(16g	.	(16ee	.	.
.	.	.	.	16aJJ)	.	16cc#JJ)	.	.
.	.	8dX'L	.	(16f#LL	.	(16eeLL	.	I
.	.	.	.	16a)	.	16dd)	.	.
.	.	8d'J	.	(16f#	.	(16ff#	.	.
.	.	.	.	16aJJ)	.	16ddJJ)	.	.
=94	=94	=94	=94	=94	=94	=94	=94	=94
8r	p	8c#	.	(16eLL	.	8aa	.	V
.	.	.	.	16aJJ)	.	.	.	.
8AA	.	4r	.	4r	.	4r	.	.
8E	.	.	.	.	.	.	.	.
8r	.	8e	.	(16gXLL	.	(16ggXLL	.	iv.i
.	.	.	.	16bJJ)	.	16eeJJ)	.	.
=95	=95	=95	=95	=95	=95	=95	=95	=95
2r	.	8f#'L	.	(16aLL	.	(16eeLL	.	V43
.	.	.	.	16b)	.	16dd#)	.	.
.	.	8f#'J	.	(16a	.	(16ff#	.	.
.	.	.	.	16bJJ)	.	16dd#JJ)	.	.
.	.	8e'L	.	(16gXLL	.	(16ff#LL	.	i
.	.	.	.	16b)	.	16ee)	.	.
.	.	8e'J	.	(16g	.	(16ffX	.	.
.	.	.	.	16bJJ)	.	16eeJJ)	.	.
=96	=96	=96	=96	=96	=96	=96	=96	=96
8r	p	4d#	.	(16f#LL	.	8bb	.	V6
.	.	.	.	16bJJ)	.	.	.	.
8BB'L	.	.	.	4.r	.	4.r	.	i6
8GXJ	.	8r	.	.	.	.	.	.
(16BLL	.	(16bLL	.	.	.	.	.	.
16GJJ)	.	16gXJJ)	.	.	.	.	.	.
=97	=97	=97	=97	=97	=97	=97	=97	=97
(16GXLL	.	(16gXLL	.	2r	.	2r	.	@none
16F#)	.	16f#)	.	.	.	.	.	.
(16A	.	(16a	.	.	.	.	.	.
16F#JJ)	.	16f#JJ)	.	.	.	.	.	.
(16ALL	.	(16aLL	.	.	.	.	.	.
16G)	.	16g)	.	.	.	.	.	.
(16B	.	(16b	.	.	.	.	.	.
16GJJ)	.	16gJJ)	.	.	.	.	.	.
=98	=98	=98	=98	=98	=98	=98	=98	=98
4dX	p	4ddX	p	4.r	.	8r	.	.bVI.V
.	.	.	.	.	.	8ddX'L	p	.
8r	.	8r	.	.	.	8dddX'J	.	.
(16BLL	.	(16dXLL	.	(16gXLL	p	8r	.	I
16GXJJ)	.	16gXJJ)	.	16bJJ)	.	.	.	.
=99	=99	=99	=99	=99	=99	=99	=99	=99
4dX	.	4f#	.	4a	.	8r	.	V
.	.	.	.	.	.	8ddX'L	.	.
8r	.	8r	.	8r	.	8dddX'J	.	.
(16BBLL	.	(16dXLL	.	(16gXLL	.	8r	.	I6
16GGXJJ)	.	16BJJ)	.	16bJJ)	.	.	.	.
=100	=100	=100	=100	=100	=100	=100	=100	=100
8DX'L	.	8A'L	.	8f#'L	.	8r	.	V
!LO:TX:b:Bi:t=cresc.	!	!LO:TX:a:Bi:t=cresc.	!	!LO:TX:b:Bi:t=cresc.	!	!LO:TX:b:Bi:t=cresc.	!	!
(16BBL	.	(16dXL	.	(16gXL	.	(16ddXLL	.	I6
16GGXJJ)	.	16BJJ)	.	16bJJ)	.	16dddXJJ)	.	.
8D'L	.	8A'L	.	8f#'L	.	8r	.	V
(16BBL	.	(16dL	.	(16gL	.	(16ddLL	.	I6
16GGJJ)	.	16BJJ)	.	16bJJ)	.	16dddJJ)	.	.
=101	=101	=101	=101	=101	=101	=101	=101	=101
8DX	.	8A	.	8f#	.	8r	.	V
8r	.	8r	.	8r	.	(16ddXLL	.	.
.	.	.	.	.	.	16dddXJJ)	.	.
4r	.	4r	.	4r	.	8r	.	.
.	.	.	.	.	.	8dd	.	.
=102	=102	=102	=102	=102	=102	=102	=102	=102
!	!	!	!LO:DY:a	!	!LO:DY:a	!	!	!
(2GX	f	(2B	f f	(2dX	f	4B 4gX 4ddX 4bb	.	I
.	.	.	.	.	.	(32aaLLL	.	.
.	.	.	.	.	.	32ggX	.	.
.	.	.	.	.	.	32ff#	.	.
.	.	.	.	.	.	32gg	.	.
.	.	.	.	.	.	32ff#	.	.
.	.	.	.	.	.	32gg	.	.
.	.	.	.	.	.	32bb	.	.
.	.	.	.	.	.	32ggJJJ)	.	.
=103	=103	=103	=103	=103	=103	=103	=103	=103
4A)	.	4cX)	.	4f#)	.	4ddX	.	V43
8r	.	8r	.	8r	.	8r	.	.
16.r	.	16.r	.	16.r	.	16.r	.	.
32A	.	32c	.	32ddX	.	32dd	.	.
=104	=104	=104	=104	=104	=104	=104	=104	=104
8..BL	.	8dXL	.	8gXL	.	8ggXL	.	I6
.	.	16.r	.	16.r	.	16.r	.	.
32BJkk	.	32dJkk	.	32gJkk	.	32ggJkk	.	.
8GXL	.	8gXL	.	8dXL 8b	.	8bbL	.	I
16.r	.	16.r	.	16.r	.	16.r	.	.
32GJkk	.	32gJkk	.	32dJkk 32b	.	32bbJkk	.	.
=105	=105	=105	=105	=105	=105	=105	=105	=105
8DX	.	8f#	.	8dX 8a	.	8dddX	.	V
8r	.	8r	.	8r	.	8r	.	.
4r	.	4r	.	4r	.	4r	.	.
=106	=106	=106	=106	=106	=106	=106	=106	=106
!LO:TX:b:Bi:t=sempre	!	!	!	!	!	!LO:TX:b:Bi:t=sempre	!	!
8..BL	pp	2r	.	2r	.	(2gX	pp	I
32BJkk	.	.	.	.	.	.	.	.
8..GXL	.	.	.	.	.	.	.	.
32GJkk	.	.	.	.	.	.	.	.
=107	=107	=107	=107	=107	=107	=107	=107	=107
!	!	!LO:TX:b:Bi:t=sempre	!	!	!	!	!	!
8..DXL	pp	(2gX	.	2r	.	[2a)	.	V(4)
32DJkk	.	.	.	.	.	.	.	.
8..dXL	.	.	.	.	.	.	.	.
32dJkk	.	.	.	.	.	.	.	.
=108	=108	=108	=108	=108	=108	=108	=108	=108
8..cXL	.	4f#	.	2r	.	16aLL]	.	V2
.	.	.	.	.	.	16b	.	.
.	.	.	.	.	.	16ccX'	.	.
.	.	.	.	.	.	16cc#'JJ	.	.
32cJkk	.	.	.	.	.	.	.	.
8..AL	.	[4ccX)	.	.	.	16ddX'LL	.	V43
.	.	.	.	.	.	16cc#'	.	.
.	.	.	.	.	.	16dd'	.	.
.	.	.	.	.	.	16cc#'JJ	.	.
32AJkk	.	.	.	.	.	.	.	.
=109	=109	=109	=109	=109	=109	=109	=109	=109
8..GXL	.	(4cc]	.	2r	.	[2ddX	.	I
32GJkk	.	.	.	.	.	.	.	.
8..gXL	.	[4b)	.	.	.	.	.	.
32gJkk	.	.	.	.	.	.	.	.
=110	=110	=110	=110	=110	=110	=110	=110	=110
8..fXL	.	4b]	.	2r	.	(16ddLL]	.	V2/IV
.	.	.	.	.	.	16ee)	.	.
.	.	.	.	.	.	16ffX'	.	.
.	.	.	.	.	.	16ff#'JJ	.	.
32fJkk	.	.	.	.	.	.	.	.
8..dXL	.	(8.ffXL	.	.	.	16ggX'LL	.	V43/IV
.	.	.	.	.	.	16ff#'	.	.
.	.	.	.	.	.	16gg'	.	.
.	.	16bJk)	.	.	.	16ff#'JJ	.	.
32dJkk	.	.	.	.	.	.	.	.
=111	=111	=111	=111	=111	=111	=111	=111	=111
8..eL	.	(4ccX	.	2r	.	[2ggX	.	I64
32eJkk	.	.	.	.	.	.	.	.
8..dXL	.	4b)	.	.	.	.	.	.
32dJkk	.	.	.	.	.	.	.	.
=112	=112	=112	=112	=112	=112	=112	=112	=112
8..cXL	.	[2a	.	4r	pp	2gg]	.	V65/V
32cJkk	.	.	.	.	.	.	.	.
!	!	!	!	!LO:TX:b:Bi:t=sempre	!	!	!	!
8..c#L	.	.	.	(4ee	.	.	.	.
32c#Jkk	.	.	.	.	.	.	.	.
=113	=113	=113	=113	=113	=113	=113	=113	=113
8dXL	.	8a]	.	(2ddX)	.	8ff#L	.	V
8DXJ	.	4.r	.	.	.	16.r	.	.
.	.	.	.	.	.	32fff#Jkk	.	.
8r	.	.	.	.	.	8dddXL	.	.
8F#	.	.	.	.	.	16.r	.	V6
.	.	.	.	.	.	32dddJkk	.	.
=114	=114	=114	=114	=114	=114	=114	=114	=114
8r	.	(2ddX	.	[2ee)	.	8aaL	.	.biii.V(4)
8A	.	.	.	.	.	16.r	.	.
.	.	.	.	.	.	32aaJkk	.	.
8r	.	.	.	.	.	8aaaL	.	.
8AA	.	.	.	.	.	16.r	.	.
.	.	.	.	.	.	32aaaJkk	.	.
=115	=115	=115	=115	=115	=115	=115	=115	=115
8r	.	2cc#)	.	(16eeLL]	.	8gggXL	.	V7
.	.	.	.	16ff#)	.	.	.	.
8A	.	.	.	16ggX'	.	16.r	.	.
.	.	.	.	16gg#'JJ	.	.	.	.
.	.	.	.	.	.	32gggJkk	.	.
8r	.	.	.	16aa'LL	.	8eeeL	.	.
.	.	.	.	16gg#'	.	.	.	.
8AA	.	.	.	16aa'	.	16.r	.	.
.	.	.	.	16gg#'JJ	.	.	.	.
.	.	.	.	.	.	32eeeJkk	.	.
=116	=116	=116	=116	=116	=116	=116	=116	=116
8r	.	(16ddXLL	.	[2aa	.	8fffXL	.	i
.	.	16cc#)	.	.	.	.	.	.
8DX	.	16dd'	.	.	.	16.r	.	.
.	.	16ee'JJ	.	.	.	.	.	.
.	.	.	.	.	.	32fffJkk	.	.
8r	.	16ffX'LL	.	.	.	8dddXL	.	.bvii.iv
.	.	16ee'	.	.	.	.	.	.
8dX	.	16ff'	.	.	.	16.r	.	.
.	.	16ee'JJ	.	.	.	.	.	.
.	.	.	.	.	.	32dddJkk	.	.
=117	=117	=117	=117	=117	=117	=117	=117	=117
8r	.	4.ddX	.	(16aaLL]	.	8bbL	.	V7(4)
.	.	.	.	16gg#)	.	.	.	.
8e	.	.	.	16dddX'	.	16.r	.	.
.	.	.	.	16bb'JJ	.	.	.	.
.	.	.	.	.	.	32bbJkk	.	.
8r	.	.	.	16gg#'LL	.	8eeeL	.	V7
.	.	.	.	16ee'	.	.	.	.
8E	.	8G#	.	16ddX'	.	16.r	.	.
.	.	.	.	16b'JJ	.	.	.	.
.	.	.	.	.	.	32eeeJkk	.	.
=118	=118	=118	=118	=118	=118	=118	=118	=118
8AA	.	2A	.	8ccXL	.	8aaL	.	i
8r	.	.	.	16.r	.	8aJ	.	.
.	.	.	.	32ccJkk	.	.	.	.
4r	.	.	.	8aL	.	8r	.	.
.	.	.	.	16.r	.	8cccX	.	.
.	.	.	.	32aJkk	.	.	.	.
=119	=119	=119	=119	=119	=119	=119	=119	=119
16fX'LL	.	[2B	.	8g#L	.	8r	.	V7
16e'	.	.	.	.	.	.	.	.
16f'	.	.	.	16.r	.	8dddX	.	.
16e'JJ	.	.	.	.	.	.	.	.
.	.	.	.	32g#Jkk	.	.	.	.
16f'LL	.	.	.	8ddXL	.	8r	.	.
16e'	.	.	.	.	.	.	.	.
16f'	.	.	.	16.r	.	8gg#	.	.
16e'JJ	.	.	.	.	.	.	.	.
.	.	.	.	32ddJkk	.	.	.	.
=120	=120	=120	=120	=120	=120	=120	=120	=120
4dX	.	16BLL]	.	8ffXL	.	8r	.	#viio65
.	.	16c#	.	.	.	.	.	.
.	.	16dX	.	16.r	.	8gg#	.	.
.	.	16c#JJ	.	.	.	.	.	.
.	.	.	.	32ffJkk	.	.	.	.
4r	.	16dLL	.	8g#L	.	8r	.	.
.	.	16c#	.	.	.	.	.	.
.	.	16d	.	16.r	.	8fffX	.	.
.	.	16c#JJ	.	.	.	.	.	.
.	.	.	.	32g#Jkk	.	.	.	.
=121	=121	=121	=121	=121	=121	=121	=121	=121
16gXLL	.	(4dX	.	8b-XL	.	8r	.	ii%2/iv
16f#	.	.	.	.	.	.	.	.
16g	.	.	.	16.r	.	8eee	.	.
16f#JJ	.	.	.	.	.	.	.	.
.	.	.	.	32b-Jkk	.	.	.	.
16gLL	.	[4c#)	.	8aL	.	8r	.	V65/iv
16f#	.	.	.	.	.	.	.	.
16g	.	.	.	16.r	.	8eee	.	.
16fXJJ	.	.	.	.	.	.	.	.
.	.	.	.	32aJkk	.	.	.	.
=122	=122	=122	=122	=122	=122	=122	=122	=122
4e	.	(16c#LL]	.	8ggXL	.	8r	.	i.#viio65
.	.	16d#)	.	.	.	.	.	.
.	.	16e'	.	16.r	.	8aa#X	.	.
.	.	16d#'JJ	.	.	.	.	.	.
.	.	.	.	32ggJkk	.	.	.	.
8r	.	16e'LL	.	8ff#L	.	8r	.	V7
.	.	16c#'	.	.	.	.	.	.
8FF#	.	16A#X'	.	16.r	.	8eee	.	.
.	.	16F#'JJ	.	.	.	.	.	.
.	.	.	.	32eeJkk	.	.	.	.
=123	=123	=123	=123	=123	=123	=123	=123	=123
2BB	.	8dXL	.	16ddX'LL	.	16dddX'LL	.	i
.	.	.	.	16b'	.	16bb'	.	.
.	.	16.r	.	16b'JJ	.	16bb'JJ	.	.
.	.	.	.	16r	.	16r	.	.
.	.	32dJkk	.	.	.	.	.	.
.	.	8BL	.	16r	.	16r	.	.
.	.	.	.	16dd'LL	.	16ddd'LL	.	.
.	.	16.r	.	16dd'JJ	.	16ddd'JJ	.	.
.	.	.	.	16r	.	16r	.	.
.	.	32BJkk	.	.	.	.	.	.
=124	=124	=124	=124	=124	=124	=124	=124	=124
[2C#	.	8A#XL	.	16r	.	16r	.	V43(#7)
.	.	.	.	16ee#X'LL	.	16eee#X'LL	.	.
.	.	16.r	.	16ee#'JJ	.	16eee#'JJ	.	.
.	.	.	.	16r	.	16r	.	.
.	.	32A#Jkk	.	.	.	.	.	.
.	.	8eL	.	16r	.	16r	.	V43
.	.	.	.	16ff#'LL	.	16fff#'LL	.	.
.	.	16.r	.	16ff#'JJ	.	16fff#'JJ	.	.
.	.	.	.	16r	.	16r	.	.
.	.	32eJkk	.	.	.	.	.	.
=125	=125	=125	=125	=125	=125	=125	=125	=125
!LO:TX:b:Bi:t=cresc.	!	!LO:TX:b:Bi:t=cresc.	!	!LO:TX:b:Bi:t=cresc.	!	!LO:TX:b:Bi:t=cresc.	!	!
16C#LL]	.	8gXL	.	16r	.	16r	.	#viio65
16D#'	.	.	.	16a#LL	.	16aa#XLL	.	.
16E'	.	16.r	.	16a#JJ	.	16aa#JJ	.	.
16D#'JJ	.	.	.	16r	.	16r	.	.
.	.	32gJkk	.	.	.	.	.	.
16E'LL	.	8A#XL	.	16r	.	16r	.	#viio43
16D#'	.	.	.	16ggXLL	.	16gggXLL	.	.
16E'	.	16.r	.	16ggJJ	.	16gggJJ	.	.
16D#'JJ	.	.	.	16r	.	16r	.	.
.	.	32A#Jkk	.	.	.	.	.	.
=126	=126	=126	=126	=126	=126	=126	=126	=126
(4E	.	8cXL	.	16r	.	16r	.	ii%2/iv
.	.	.	.	16ff#LL	.	16fff#LL	.	.
.	.	16.r	.	16ff#JJ	.	16fff#JJ	.	.
.	.	.	.	16r	.	16r	.	.
.	.	32cJkk	.	.	.	.	.	.
[4D#)	.	8BL	.	16r	.	16r	.	V65/iv
.	.	.	.	16aaLL	.	16aaaLL	.	.
.	.	16.r	.	16aaJJ	.	16aaaJJ	.	.
.	.	.	.	16r	.	16r	.	.
.	.	32BJkk	.	.	.	.	.	.
=127	=127	=127	=127	=127	=127	=127	=127	=127
(16D#LL]	.	8aL	.	16r	.	16r	.	#viio65/ii
16E)	.	.	.	16b#XLL	.	16bb#XLL	.	.
16F#'	.	16.r	.	16b#JJ	.	16bb#JJ	.	.
16E#X'JJ	.	.	.	16r	.	16r	.	.
.	.	32aJkk	.	.	.	.	.	.
16F#'LL	.	8B#XL	.	16r	.	16r	.	#viio43/ii
16E#'	.	.	.	16aaLL	.	16aaaLL	.	.
16F#'	.	16.r	.	16aaJJ	.	16aaaJJ	.	.
16E#'JJ	.	.	.	16r	.	16r	.	.
.	.	32B#Jkk	.	.	.	.	.	.
=128	=128	=128	=128	=128	=128	=128	=128	=128
(4F#	.	8dXL	.	16r	.	16r	.	ii%2/v
.	.	.	.	16gg#LL	.	16ggg#LL	.	.
.	.	16.r	.	16gg#JJ	.	16ggg#JJ	.	.
.	.	.	.	16r	.	16r	.	.
.	.	32dJkk	.	.	.	.	.	.
[4E#X)	.	8c#L	.	16r	.	16r	.	V65/v
.	.	.	.	16bbLL	.	16bbbLL	.	.
.	.	16.r	.	16bbJJ	.	16bbbJJ	.	.
.	.	.	.	16r	.	16r	.	.
.	.	32c#Jkk	.	.	.	.	.	.
=129	=129	=129	=129	=129	=129	=129	=129	=129
(16E#LL]	.	8bL	.	16r	.	16r	.	.
16F#)	.	.	.	16e#XLL	.	16ee#XLL	.	.
16G#'	.	16.r	.	16e#JJ	.	16ee#JJ	.	.
16F##X'JJ	.	.	.	16r	.	16r	.	.
.	.	32bJkk	.	.	.	.	.	.
16G#'LL	.	8e#XL	.	16r	.	16r	.	#viio65/v
16F##'	.	.	.	16cc##XLL	.	16dddXLL	.	.
16G#'	.	16.r	.	16cc##JJ	.	16dddJJ	.	.
16F##'JJ	.	.	.	16r	.	16r	.	.
.	.	32e#Jkk	.	.	.	.	.	.
=130	=130	=130	=130	=130	=130	=130	=130	=130
8G#	f	8b'L	f	8r	f	8r	f	#viio65/v
8r	.	8g#'J	.	8cc#	.	8ee#X 8dddX	.	.
4r	.	4r	.	4r	.	4r	.	.
=131	=131	=131	=131	=131	=131	=131	=131	=131
4g#'	p	4b'	p	2r	.	4ee#X'	p	#viio6/V
4g#'	.	4b'	.	.	.	4ee#'	.	.
=132	=132	=132	=132	=132	=132	=132	=132	=132
4.g#	sf	4.b	sf	4.ee#X	sf	4.dddX	sf	#viio65/V
8g#	p	(16bLL	p	8ee#	p	(16dddLL	p	.
.	.	16ddXJJ)	.	.	.	16bbJJ)	.	.
=133	=133	=133	=133	=133	=133	=133	=133	=133
8g#'L	.	(16cc#LL	.	8ee#X'L	.	(16ccc#LL	.	.
.	.	16ddX)	.	.	.	16bb)	.	.
8g#'J	.	(16b	.	8ee#'J	.	(16dddX	.	.
.	.	16ddJJ)	.	.	.	16bbJJ)	.	.
8g#'L	.	(16cc#LL	.	8ee#'L	.	(16ccc#LL	.	.
.	.	16dd)	.	.	.	16bb)	.	.
8g#'J	.	(16b	.	8ee#'J	.	(16ddd	.	.
.	.	16ddJJ)	.	.	.	16bbJJ)	.	.
=134	=134	=134	=134	=134	=134	=134	=134	=134
4g#	.	(16cc#LL	.	8ee#X	.	(16ccc#LL	.	.
.	.	16ddXJJ)	.	.	.	16bbJJ)	.	.
.	.	8r	.	8r	.	8r	.	.
4r	.	4r	.	4r	.	4r	.	.
=135	=135	=135	=135	=135	=135	=135	=135	=135
!LO:TX:b:Bi:t=cresc.	!	!LO:TX:b:Bi:t=cresc.	!	!LO:TX:a:Bi:t=cresc.	!	!LO:TX:b:Bi:t=cresc.	!	!
4G#'	.	4b'	.	4cc##X'	.	4ee#X'	.	.
4G#'	.	4b'	.	4cc##'	.	4ee#'	.	.
=136	=136	=136	=136	=136	=136	=136	=136	=136
4.A#	sf	4.f#	sf	4.cc#	sf	4.ee 4.ccc#	sf	I.V65
8a#	p	8ff#	p	(16eeLL	p	(16eeeLL	p	.
.	.	.	.	16cc#JJ)	.	16ccc#JJ)	.	.
=137	=137	=137	=137	=137	=137	=137	=137	=137
8a#L	.	8ff#L	.	(16b#XLL	.	(16ddd#LL	.	.
.	.	.	.	16cc#)	.	16ccc#)	.	.
8a#J	.	8ff#J	.	(16ee	.	(16eee	.	.
.	.	.	.	16cc#JJ)	.	16ccc#JJ)	.	.
8a#L	.	8ff#L	.	(16b#LL	.	(16ddd#LL	.	.
.	.	.	.	16cc#)	.	16ccc#)	.	.
8a#J	.	8ff#J	.	(16ee	.	(16eee	.	.
.	.	.	.	16cc#JJ)	.	16ccc#JJ)	.	.
=138	=138	=138	=138	=138	=138	=138	=138	=138
8a#	.	8ff#	.	(16b#XLL	.	(16ddd#LL	.	V6
.	.	.	.	16cc#JJ)	.	16ccc#JJ)	.	.
8r	.	8r	.	4r	.	4r	.	.
4r	.	4r	.	.	.	.	.	.
.	.	.	.	(16eeeLL	.	(16ggg#LL	.	.
.	.	.	.	16ccc#JJ)	.	16eeeJJ)	.	.
=139	=139	=139	=139	=139	=139	=139	=139	=139
2r	.	2r	.	(16bb#XLL	.	(16fff#LL	.	V65
.	.	.	.	16ccc#)	.	16eee)	.	.
.	.	.	.	(16eee	.	(16ggg#	.	.
.	.	.	.	16ccc#JJ)	.	16eeeJJ)	.	.
.	.	.	.	(16bb#LL	.	(16fff#LL	.	.
.	.	.	.	16ccc#)	.	16eee)	.	.
.	.	.	.	(16eee	.	(16ggg#	.	.
.	.	.	.	16ccc#JJ)	.	16eeeJJ)	.	.
=140	=140	=140	=140	=140	=140	=140	=140	=140
8r	.	8r	.	(16bb#XLL	.	(16fff#LL	.	.
.	.	.	.	16ccc#JJ)	.	16eeeJJ)	.	.
!LO:TX:b:Bi:t=decresc.	!	!LO:TX:a:Bi:t=decresc.	!	!	!	!	!	!
(16aa#LL	.	(16cc#LL	.	4r	.	4r	.	.
16ccc#JJ)	.	16eeJJ)	.	.	.	.	.	.
(16bb#XLL	.	(16dd#LL	.	.	.	.	.	.
16ccc#JJ)	.	16eeJJ)	.	.	.	.	.	.
!	!	!	!	!LO:TX:a:Bi:t=decresc.	!	!LO:TX:a:Bi:t=decresc.	!	!
8r	.	8r	.	(16eeeLL	.	(16ggg#LL	.	.
.	.	.	.	16ccc#JJ)	.	16eeeJJ)	.	.
=141	=141	=141	=141	=141	=141	=141	=141	=141
8r	.	8r	.	(16bb#XLL	pp	(16fff#LL	pp	.
.	.	.	.	16ccc#JJ)	.	16eeeJJ)	.	.
(16aa#LL	pp	(16cc#LL	pp	4r	.	4r	.	.
16ccc#JJ)	.	16eeJJ)	.	.	.	.	.	.
(16bb#XLL	.	(16dd#LL	.	.	.	.	.	.
16ccc#JJ)	.	16eeJJ)	.	.	.	.	.	.
8r	.	8r	.	(16eeeLL	.	(16ggg#LL	.	.
.	.	.	.	16ccc#JJ)	.	16eeeJJ)	.	.
=142	=142	=142	=142	=142	=142	=142	=142	=142
4ff#'	f	2r	.	(16ddd#LL	.	(16fff#LL	.	V7
.	.	.	.	16ccc#JJ)	.	16eeeJJ)	.	.
.	.	.	.	8r	.	8r	.	.
4ff#'	.	.	.	4r	.	4r	.	.
=143	=143	=143	=143	=143	=143	=143	=143	=143
2ff#	sf	2r	.	2r	.	2r	.	.
=144	=144	=144	=144	=144	=144	=144	=144	=144
4ff#'	f	4e'	f	2r	.	2r	.	.
4ff#'	.	4e'	.	.	.	.	.	.
=145	=145	=145	=145	=145	=145	=145	=145	=145
2ff#	sf	2e	sf	2r	.	2r	.	.
=146	=146	=146	=146	=146	=146	=146	=146	=146
!	!	!	!	!	!LO:DY:a	!	!	!
4ff#	.	8d#'L	.	2r	f	4f#' 4ff#	.	I6
.	.	8b'J	.	.	.	.	.	.
(32dd#LLL	.	8f#'L	.	.	.	4f#' 4ff#	.	.
32ee	.	.	.	.	.	.	.	.
32dd#	.	.	.	.	.	.	.	.
32ee	.	.	.	.	.	.	.	.
32ff#	.	8d#'J	.	.	.	.	.	.
32gg#	.	.	.	.	.	.	.	.
32aa#	.	.	.	.	.	.	.	.
32bbJJJ)	.	.	.	.	.	.	.	.
=147	=147	=147	=147	=147	=147	=147	=147	=147
!	!	!	!	!	!LO:DY:a	!	!	!
4ff#	.	8B'L	.	2r	sf	2f# 2ff#	.	V6
.	.	8f#'J	.	.	.	.	.	.
8.r	.	8d#'L	.	.	.	.	.	.
.	.	8B'J	.	.	.	.	.	.
16dd#	.	.	.	.	.	.	.	.
=148	=148	=148	=148	=148	=148	=148	=148	=148
8qff#/	.	.	.	.	.	.	.	.
!	!	!	!LO:DY:a	!	!	!	!	!
8eeL	.	8A#'L	f	4f#' 4ee	.	4f#' 4ff#	.	V65
16.r	.	8F#'J	.	.	.	.	.	.
32eeJkk	.	.	.	.	.	.	.	.
8cc#L	.	8A#'L	.	4f#' 4ee	.	4f#' 4ff#	.	.
16.r	.	8c#'J	.	.	.	.	.	.
32a#Jkk	.	.	.	.	.	.	.	.
=149	=149	=149	=149	=149	=149	=149	=149	=149
!	!	!	!LO:DY:a	!	!	!	!	!
4.f#	sf	8e'L	sf sf	4.f# 4.ee	.	2f# 2ff#	sf	V7
.	.	8c#'J	.	.	.	.	.	.
.	.	8A#'L	.	.	.	.	.	.
8e	.	8F#'J	.	8cc#	.	.	.	.
=150	=150	=150	=150	=150	=150	=150	=150	=150
8D#'L	f	8B	f	4b	.	4ff#	f	I6
8B'J	.	4F# 4d#	.	.	.	.	.	.
8F#'L	.	.	.	4r	.	(32dd#LLL	.	.
.	.	.	.	.	.	32ee	.	.
.	.	.	.	.	.	32dd#	.	.
.	.	.	.	.	.	32ee	.	.
8D#'J	.	[8F# [8d#	.	.	.	32ff#	.	.
.	.	.	.	.	.	32gg#	.	.
.	.	.	.	.	.	32aa#	.	.
.	.	.	.	.	.	32bbJJJ)	.	.
=151	=151	=151	=151	=151	=151	=151	=151	=151
!	!	!	!LO:DY:a	!	!	!	!	!
8BB'L	.	8F#] 8d#]	f	4f#	.	4ff#	.	I
8F#'J	.	4F# 4d#	.	.	.	.	.	.
8D#'L	.	.	.	(32d#LLL	.	8.r	.	.
.	.	.	.	32e	.	.	.	.
.	.	.	.	32d#	.	.	.	.
.	.	.	.	32e	.	.	.	.
8BB'J	.	((8F# 8d#	.	32f#	.	.	.	.
.	.	.	.	32g#	.	.	.	.
.	.	.	.	32a#	.	16dd#	.	.
.	.	.	.	32bJJJ)	.	.	.	.
=152	=152	=152	=152	=152	=152	=152	=152	=152
.	.	.	.	.	.	8qff#/	.	V65
8AA#'L	.	8F#)) 8e	.	4cc#	.	8eeL	.	.
8FF#'J	.	4F# 4e	.	.	.	16.r	.	.
.	.	.	.	.	.	32eeJkk	.	.
8AA#'L	.	.	.	8r	.	8cc#L	.	.
8C#'J	.	[8F# [8e	.	16.r	.	16.r	.	.
.	.	.	.	32dd#	.	32a#Jkk	.	.
=153	=153	=153	=153	=153	=153	=153	=153	=153
!LO:TX:b:Bi:t=cresc.	!	!LO:TX:b:Bi:t=cresc.	!	!LO:TX:b:Bi:t=cresc.	!	!LO:TX:b:Bi:t=cresc.	!	!
8F#'L	.	8F#] 8e]	.	8eeL	.	4f#	.	V7
8A#'J	.	4F# 4e	.	16.r	.	.	.	.
.	.	.	.	32eeJkk	.	.	.	.
8c#'L	.	.	.	8cc#L	.	8r	.	.
8e'J	.	([8F# 8e	.	16.r	.	8f#	.	.
.	.	.	.	32a#Jkk	.	.	.	.
=154	=154	=154	=154	=154	=154	=154	=154	=154
8d#'L	.	8F#]) 8d#	.	8f#	sf	(4b	.	vi
8G#'J	.	8r	.	4b	.	.	.	.
8F#'L	.	[4cc#	sf	.	.	16cc#LL	.	V(4)
.	.	.	.	.	.	16dd#	.	.
8E'J	.	.	.	8a#'	.	16ee	.	V2
.	.	.	.	.	.	16cc#JJ)	.	.
=155	=155	=155	=155	=155	=155	=155	=155	=155
8D#'L	.	8cc#L]	.	4.dd#	sf	(4ff#	.	I
8BB'J	.	8bJ	.	.	.	.	.	.
8AA#'L	.	4ee	sf	.	.	8bbL)	.	ii43
8GG#'J	.	.	.	8cc#	.	8BJ	.	.
=156	=156	=156	=156	=156	=156	=156	=156	=156
8FF#L	p	8dd#'L	p	8ff#'L	p	(4b	p	#viio/V
8EE#XJ	.	8B'J	.	8gg#'J	.	.	.	.
8FF#L	.	8B'L	.	8ff#'L	.	16cc#LL	.	V(4)
.	.	.	.	.	.	16dd#	.	.
8FF#J	.	(16c#L	.	(16a#L	.	16ee	.	V7
.	.	16eJJ)	.	16cc#JJ)	.	16cc#JJ)	.	.
=157	=157	=157	=157	=157	=157	=157	=157	=157
4BB	.	4d#	.	4b	.	4b	.	I\\
4r	.	4r	.	4r	.	4r	.	.
=158	=158	=158	=158	=158	=158	=158	=158	=158
!	!LO:DY:a	!	!LO:DY:a	!	!	!	!	!
(2BB	f f	[2F#	f	(2d#	.	4dd# 4ddd#	f	I
.	.	.	.	.	.	(32ccc#LLL	.	.
.	.	.	.	.	.	32bb	.	.
.	.	.	.	.	.	32aa#	.	.
.	.	.	.	.	.	32bb	.	.
.	.	.	.	.	.	32aa#	.	.
.	.	.	.	.	.	32bb	.	.
.	.	.	.	.	.	32ddd#	.	.
.	.	.	.	.	.	32bbJJJ)	.	.
=159	=159	=159	=159	=159	=159	=159	=159	=159
!	!LO:DY:a	!	!LO:DY:a	!	!	!	!	!
4C#)	p p	4F#]	p	4e)	.	4ff#	p	V43
8.r	.	8.r	.	8.r	.	8.r	.	.
16C#	.	16F#	.	16e	.	16f#	.	.
=160	=160	=160	=160	=160	=160	=160	=160	=160
8..D#L	.	8F#L	.	8f#L	.	8bL	.	I6
.	.	16.r	.	16.r	.	16.r	.	.
32D#Jkk	.	32F#Jkk	.	32f#Jkk	.	32bJkk	.	.
8..BBL	.	8BL	.	8d#L	.	8dd#L	.	I
.	.	16.r	.	16.r	.	16.r	.	.
32BBJkk	.	32BJkk	.	32d#Jkk	.	32dd#Jkk	.	.
=161	=161	=161	=161	=161	=161	=161	=161	=161
8FF#	.	8A#	.	8c#	.	8ff#	.	V
8r	.	8r	.	8r	.	8r	.	.
4r	.	4r	.	4r	.	4r	.	.
=162	=162	=162	=162	=162	=162	=162	=162	=162
2r	.	(4B	pp	4dd#	pp	2r	.	I
.	.	4d#	.	(32cc#LLL	.	.	.	.
.	.	.	.	32b	.	.	.	.
.	.	.	.	32a#	.	.	.	.
.	.	.	.	32b	.	.	.	.
.	.	.	.	32a#	.	.	.	.
.	.	.	.	32b	.	.	.	.
.	.	.	.	32dd#	.	.	.	.
.	.	.	.	32bJJJ)	.	.	.	.
=163	=163	=163	=163	=163	=163	=163	=163	=163
(4F#	pp	8f#)	.	8f#	.	4aa	pp	v
.	.	8r	.	8r	.	.	.	.
4A	.	4r	.	4r	.	(32gg#LLL	.	.
.	.	.	.	.	.	32ff#	.	.
.	.	.	.	.	.	32ee#X	.	.
.	.	.	.	.	.	32ff#	.	.
.	.	.	.	.	.	32ee#	.	.
.	.	.	.	.	.	32ff#	.	.
.	.	.	.	.	.	32aa	.	.
.	.	.	.	.	.	32ff#JJJ)	.	.
=164	=164	=164	=164	=164	=164	=164	=164	=164
8c#)	.	(4c#	.	4ee	.	8cc#	.	ii
8r	.	.	.	.	.	8r	.	.
4r	.	4e	.	(32dd#LLL	.	4r	.	.
.	.	.	.	32cc#	.	.	.	.
.	.	.	.	32b#X	.	.	.	.
.	.	.	.	32cc#	.	.	.	.
.	.	.	.	32b#	.	.	.	.
.	.	.	.	32cc#	.	.	.	.
.	.	.	.	32ee	.	.	.	.
.	.	.	.	32cc#JJJ)	.	.	.	.
=165	=165	=165	=165	=165	=165	=165	=165	=165
(4G#	.	8g#)	.	8g#	.	4bb	.	vi.i
.	.	8r	.	8r	.	.	.	.
4B	.	4r	.	4r	.	(32aa#LLL	.	i6
.	.	.	.	.	.	32gg#	.	.
.	.	.	.	.	.	32ff##X	.	.
.	.	.	.	.	.	32gg#	.	.
.	.	.	.	.	.	32ff##	.	.
.	.	.	.	.	.	32gg#	.	.
.	.	.	.	.	.	32bb	.	.
.	.	.	.	.	.	32gg#JJJ)	.	.
=166	=166	=166	=166	=166	=166	=166	=166	=166
8d#)	.	(4d#	.	4dd#	.	(4ff##X	.	V
8r	.	.	.	.	.	.	.	.
4r	.	4e)	.	(32cc#LLL	.	8gg#L	.	VI
.	.	.	.	32b	.	.	.	.
.	.	.	.	32a#	.	.	.	.
.	.	.	.	32g#	.	.	.	.
.	.	.	.	32f##X	.	8bbJ)	.	.
.	.	.	.	32g#	.	.	.	.
.	.	.	.	32b	.	.	.	.
.	.	.	.	32g#JJJ)	.	.	.	.
=167	=167	=167	=167	=167	=167	=167	=167	=167
(4D#	.	(4d#	.	(8f##XL	.	(4.ddd#	.	.Ger6
.	.	.	.	[8cc#J)	.	.	.	.
4E	.	8G#L	.	(32cc#LLL]	.	.	.	.
.	.	.	.	32b	.	.	.	.
.	.	.	.	32a#	.	.	.	.
.	.	.	.	32g#	.	.	.	.
.	.	8BJ)	.	32f##	.	8ccc##X)	.	.
.	.	.	.	32g#	.	.	.	.
.	.	.	.	32b	.	.	.	.
.	.	.	.	32g#JJJ)	.	.	.	.
=168	=168	=168	=168	=168	=168	=168	=168	=168
4D#	.	(4d#	.	(8f##XL	.	(4.ddd#	.	.Ger6
.	.	.	.	[8cc#J)	.	.	.	.
4E)	.	8G#L	.	(32cc#LLL]	.	.	.	.
.	.	.	.	32b	.	.	.	.
.	.	.	.	32a#	.	.	.	.
.	.	.	.	32g#	.	.	.	.
.	.	8BJ)	.	32f##	.	8ccc##X)	.	.
.	.	.	.	32g#	.	.	.	.
.	.	.	.	32b	.	.	.	.
.	.	.	.	32g#JJJ)	.	.	.	.
=169	=169	=169	=169	=169	=169	=169	=169	=169
!	!	!	!LO:DY:a	!	!	!	!	!
4D#	p	8d#	p p	8f##X	.	8ddd#	p	V\\
.	.	8r	.	8r	.	8r	.	.
4D#	.	8A#	.	8f##	.	8dd#	.	.
.	.	8r	.	8r	.	8r	.	.
=170	=170	=170	=170	=170	=170	=170	=170	=170
4D#	.	8A#	.	8f##X	.	8dd#	.	.
.	.	4.r	.	4.r	.	4.r	.	.
4r	.	.	.	.	.	.	.	.
=171	=171	=171	=171	=171	=171	=171	=171	=171
!	!	!	!LO:DY:a	!	!	!	!	!
[2G#	pp	[2B#X	pp pp	[2d#	.	4dd#	pp	V/iv
.	.	.	.	.	.	(32b#XLLL	.	.
.	.	.	.	.	.	32cc#	.	.
.	.	.	.	.	.	32b#	.	.
.	.	.	.	.	.	32cc#	.	.
.	.	.	.	.	.	32dd#	.	.
.	.	.	.	.	.	32ee#X	.	.
.	.	.	.	.	.	32ff##X	.	.
.	.	.	.	.	.	32gg#JJJ)	.	.
=172	=172	=172	=172	=172	=172	=172	=172	=172
4G#]	.	4B#]	.	4d#]	.	4dd#	.	.
8.r	.	8.r	.	8.r	.	8.r	.	.
16B#X	.	16B#X	.	16b#X	.	16b#X	.	.
=173	=173	=173	=173	=173	=173	=173	=173	=173
.	.	.	.	8qdd#/	.	8qdd#/	.	iv
8c#L	.	8c#L	.	8cc#L	.	8cc#L	.	.
16.r	.	16.r	.	16.r	.	16.r	.	.
32c#Jkk	.	32cc#Jkk	.	32cc#Jkk	.	32cc#Jkk	.	.
8A#L	.	8a#L	.	8a#L	.	8a#L	.	V7
16.r	.	16.r	.	16.r	.	16.r	.	.
32F##XJkk	.	32f##XJkk	.	32f##XJkk	.	32f##XJkk	.	.
=174	=174	=174	=174	=174	=174	=174	=174	=174
8D#	.	8d#	.	4d#	.	4d#	.	.
8r	.	8r	.	.	.	.	.	.
4r	.	4r	.	4r	.	8r	.	.
.	.	.	.	.	.	8dd#	.	.
=175	=175	=175	=175	=175	=175	=175	=175	=175
2r	.	8r	.	8r	.	(4gg#	.	i
.	.	8ee#X'	.	4gg#	.	.	.	.
.	.	8cc#'L	.	.	.	16aa#LL	.	ii%65
.	.	.	.	.	.	16bb#X	.	.
.	.	8dd#'J	.	8ff##X'	.	16ccc#	.	V7
.	.	.	.	.	.	16aa#JJ)	.	.
=176	=176	=176	=176	=176	=176	=176	=176	=176
2r	.	8b#X'L	.	8gg#'L	.	(4ddd#	.	I
.	.	8g#'J	.	8bb#X'J	.	.	.	.
.	.	4r	.	8r	.	8ggg#L	.	.
.	.	.	.	8d#	.	8dd#J)	.	.
=177	=177	=177	=177	=177	=177	=177	=177	=177
8r	.	16r	.	(4g#	.	(4gg#	.	i
.	.	16B'LL	.	.	.	.	.	.
8E'	.	16A#'	.	.	.	.	.	.
.	.	16G#'JJ	.	.	.	.	.	.
8C#'L	.	8e'L	.	16a#LL	.	16aa#LL	.	iio6
.	.	.	.	16b	.	16bb	.	.
8D#'J	.	8F##X'J	.	16cc#	.	16ccc#	.	V7
.	.	.	.	16a#JJ)	.	16aa#JJ)	.	.
=178	=178	=178	=178	=178	=178	=178	=178	=178
8GG#L	.	16r	.	(4b	.	(4bb	.	I.vi
.	.	16d#'LL	.	.	.	.	.	.
8G#J	.	16c#'	.	.	.	.	.	.
.	.	16B'JJ	.	.	.	.	.	.
8EL	.	8g#'L	.	16cc#LL	.	16ccc#LL	.	ii6
.	.	.	.	16dd#	.	16ddd#	.	.
8F#J	.	8A#'J	.	16ee	.	16eee	.	V7
.	.	.	.	16cc#JJ)	.	16ccc#JJ)	.	.
=179	=179	=179	=179	=179	=179	=179	=179	=179
8BBL	.	16r	.	(4dd#	.	(4ddd#	.	I\\
.	.	(16f#LL	.	.	.	.	.	.
8BJ	.	16e#X	.	.	.	.	.	.
.	.	16f#JJ	.	.	.	.	.	.
8G#L	.	16bLL	.	16ee#XLL	.	16eee#XLL	.	V43/V
.	.	16g#	.	16ff#	.	16fff#	.	.
8c#J	.	16e#	.	16gg#	.	16ggg#	.	V7/V
.	.	16BJJ)	.	16ee#JJ)	.	16eee#JJ)	.	.
=180	=180	=180	=180	=180	=180	=180	=180	=180
!LO:TX:b:Bi:t=cresc.	!	!LO:TX:b:Bi:t=cresc.	!	!LO:TX:b:Bi:t=cresc.	!	!LO:TX:a:Bi:t=cresc.	!	!
8F#L	.	[4A#	.	4ff#	.	4fff#	.	V[V6
8F#J	.	.	.	.	.	.	.	.
8FF#L	.	(16A#LL]	.	4ee	.	4eee	.	viio
.	.	16B	.	.	.	.	.	.
8F#J	.	16c#	.	.	.	.	.	.
.	.	16A#JJ)	.	.	.	.	.	.
=181	=181	=181	=181	=181	=181	=181	=181	=181
8FF#L	.	(4B	.	4dd#	.	4ddd#	.	I
8F#J	.	.	.	.	.	.	.	.
8FF#L	.	16G#LL	.	4ee#X	.	4eee#X	.	#viio6/V
.	.	16A#	.	.	.	.	.	.
8F#J	.	16B	.	.	.	.	.	.
.	.	16G#JJ)	.	.	.	.	.	.
=182	=182	=182	=182	=182	=182	=182	=182	=182
8FF#L	.	4A#	.	(4ff#	.	(4fff#	.	V6
8f#J	.	.	.	.	.	.	.	.
8F#L	.	(16cc#LL	.	16eeLL	.	16fff##XLL	.	viio
.	.	16b	.	16dd#	.	16ggg#	.	.
8f#J	.	16a#	.	16cc#	.	16aaa#	.	.
.	.	16cc#JJ)	.	16eeJJ)	.	16fff##JJ)	.	.
=183	=183	=183	=183	=183	=183	=183	=183	=183
8F#L	.	[4b	.	(4dd#	.	(4ggg#	.	vi6
8f#J	.	.	.	.	.	.	.	.
8F#L	.	(16bLL]	.	16ddXLL	.	16eee#XLL	.	#viio43/V
.	.	16a#	.	16cc#	.	16fff#	.	.
8f#J	.	16g#	.	16b	.	16ggg#	.	.
.	.	16bJJ)	.	16ddJJ)	.	16eee#JJ)	.	.
=184	=184	=184	=184	=184	=184	=184	=184	=184
4F#	.	8a#'L	.	8cc#'L	.	24fff#'LL	.	V]
.	.	.	.	.	.	(24fff#	.	.
.	.	.	.	.	.	24eee#XJJ)	.	.
.	.	8f#'J	.	8c#'J 8a#	.	24fff#'LL	.	.
.	.	.	.	.	.	24ggg#'	.	.
.	.	.	.	.	.	24aaa#'JJ	.	.
4c#	.	8r	.	8r	.	24bbbLL	.	ii7
.	.	.	.	.	.	24ggg#	.	.
.	.	.	.	.	.	24eee#JJ	.	.
.	.	8g#	.	8c# 8b	.	24ccc#LL	.	.
.	.	.	.	.	.	24ddd#	.	.
.	.	.	.	.	.	24eee#JJ	.	.
=185	=185	=185	=185	=185	=185	=185	=185	=185
4F#	.	8r	.	8r	.	24fff#LL	.	V
.	.	.	.	.	.	24ccc#	.	.
.	.	.	.	.	.	24aa#JJ	.	.
.	.	8f#	.	8c# 8a#	.	24ff#LL	.	.
.	.	.	.	.	.	24gg#	.	.
.	.	.	.	.	.	24aa#JJ	.	.
4C#	.	8r	.	8r	.	24bbLL	.	V7/V
.	.	.	.	.	.	24gg#	.	.
.	.	.	.	.	.	24ee#XJJ	.	.
.	.	8g#	.	8c# 8b	.	24cc#LL	.	.
.	.	.	.	.	.	24dd#	.	.
.	.	.	.	.	.	24ee#JJ	.	.
=186	=186	=186	=186	=186	=186	=186	=186	=186
!	!	!	!LO:DY:a	!	!	!	!	!
4F#	f	4f#	f f	4c# 4a#	.	24ff#LL	f	V
.	.	.	.	.	.	24aa#	.	.
.	.	.	.	.	.	24ccc#JJ	.	.
.	.	.	.	.	.	24fff#LL	.	.
.	.	.	.	.	.	24ccc#	.	.
.	.	.	.	.	.	24aa#JJ	.	.
8r	.	8r	.	8r	.	24ff#LL	.	.
.	.	.	.	.	.	24cc#	.	.
.	.	.	.	.	.	24a#JJ	.	.
24FF#'LL	.	24F#'LL	.	24f#'LL	.	24ff#LL	.	.
24AA#'	.	24A#'	.	24a#'	.	24cc#	.	.
24C#'JJ	.	24c#'JJ	.	24cc#'JJ	.	24a#JJ	.	.
=187	=187	=187	=187	=187	=187	=187	=187	=187
4F#	.	4f#	.	4ff#	p	4f#	.	V\\
4r	.	4r	.	8r	.	4r	.	.
.	.	.	.	8f#	.	.	.	.
=188	=188	=188	=188	=188	=188	=188	=188	=188
4B'	p	4f#'	p	4dd#'	.	4r	.	I
4e'	.	4f#'	.	4cc#'	.	4a#'	p	V2
=189	=189	=189	=189	=189	=189	=189	=189	=189
4.d#	sf	4.f#	sf	4.ff#	sf	4.b	sf	I6
8A#	p	8c#	p	8ee	p	8f##X	p	#viio65/vi
=190	=190	=190	=190	=190	=190	=190	=190	=190
8B'L	.	8d#'L	.	8dd#'L	.	8g#'L	.	vi6
8F##X'J	.	8A#'J	.	8cc#'J	.	8e'J	.	#viio7/vi
8G#'L	.	8B'L	.	8b'L	.	8d#'L	.	vi
8E#X'J	.	8B'J	.	8cc#'J	.	8c#'J	.	V65/V
=191	=191	=191	=191	=191	=191	=191	=191	=191
8F#	.	8A#	.	16f#'LL	.	8c#	.	V
.	.	.	.	16f#'	.	.	.	.
8r	.	8r	.	16g#'	.	8r	.	.
.	.	.	.	16a#'JJ	.	.	.	.
4r	.	4r	.	16b'LL	.	4r	.	.
.	.	.	.	16b#X'	.	.	.	.
.	.	.	.	16cc#'	.	.	.	.
.	.	.	.	16dd#'JJ	.	.	.	.
=192	=192	=192	=192	=192	=192	=192	=192	=192
4c#'	.	4g#'	.	4ee'	.	4r	.	ii
4f#'	.	4g#'	.	4dd#'	.	4b#X'	.	V2/ii
=193	=193	=193	=193	=193	=193	=193	=193	=193
4.e	sf	4.g#	sf	4.gg#	sf	4.cc#	sf	ii6
(8e	.	[8f#	.	(8aa#t	.	(8cc#	.	V2
.	.	.	.	(16qqgg#/LL	.	.	.	.
.	.	.	.	16qqaa#/JJ)	.	.	.	.
=194	=194	=194	=194	=194	=194	=194	=194	=194
8d#'L)	.	8f#L]	.	8bb'L)	.	8b'L)	.	I6
8e'J	.	8g#'J	.	8ccc#'J	.	8cc#'J	.	ii6
8f#'L	.	8b'L	.	8ff#'L	.	8dd#'L	.	V(64)
8F#'J	.	8cc#'J	.	8aa#'J	.	8ee'J	.	V7
=195	=195	=195	=195	=195	=195	=195	=195	=195
8B	.	8b	.	8bb	.	16dd#'LL	.	I\\
.	.	.	.	.	.	16ff#'	.	.
8r	.	8r	.	8r	.	16gg#'	.	.
.	.	.	.	.	.	16aa#'JJ	.	.
4r	.	4r	.	4r	.	16bb'LL	.	.
.	.	.	.	.	.	16bb#X'	.	.
.	.	.	.	.	.	16ccc#'	.	.
.	.	.	.	.	.	16ccc##X'JJ	.	.
=196	=196	=196	=196	=196	=196	=196	=196	=196
!	!LO:DY:a	!	!	!	!	!	!	!
4BB'	p p	16r	.	2r	.	4ddd#'	.	I
.	.	16F#'LL	.	.	.	.	.	.
.	.	16G#'	.	.	.	.	.	.
.	.	16A#'JJ	.	.	.	.	.	.
4E'	.	16B'LL	.	.	.	4ccc#'	.	V2
.	.	16c#'	.	.	.	.	.	.
.	.	16d#'	.	.	.	.	.	.
.	.	16e'JJ	.	.	.	.	.	.
=197	=197	=197	=197	=197	=197	=197	=197	=197
4.D#	.	4.f#	.	16r	.	4.fff#	.	I6
.	.	.	.	16f#'LL	.	.	.	.
.	.	.	.	16g#'	.	.	.	.
.	.	.	.	16a#'JJ	.	.	.	.
.	.	.	.	16b'LL	.	.	.	.
.	.	.	.	16cc#'	.	.	.	.
8C#	.	8f#	.	16dd#'	.	8eee	.	V43
.	.	.	.	16ee'JJ	.	.	.	.
=198	=198	=198	=198	=198	=198	=198	=198	=198
8BB'L	.	8f#'L	.	16ff#LL	.	8ddd#'L	.	I
.	.	.	.	16ff#	.	.	.	.
8AA#'J	.	8f#'J	.	16gg#	.	8ccc#'J	.	V6
.	.	.	.	16aa#JJ	.	.	.	.
8GG#'L	.	8f#'L	.	16bbLL	.	8bb'L	.	vi7
.	.	.	.	16gg#	.	.	.	.
8G#'J	.	8b'J	.	16dd#	.	8ccc#'J	.	V43/V
.	.	.	.	16ee#XJJ	.	.	.	.
=199	=199	=199	=199	=199	=199	=199	=199	=199
8F#	.	8a#	.	8ff#	.	16ff#'LL	.	V\\
.	.	.	.	.	.	16ff#'	.	.
8r	.	8r	.	8r	.	16gg#'	.	.
.	.	.	.	.	.	16aa#'JJ	.	.
4r	.	4r	.	4r	.	16bb'LL	.	.
.	.	.	.	.	.	16bb#X'	.	.
.	.	.	.	.	.	16ccc#'	.	.
.	.	.	.	.	.	16ddd#'JJ	.	.
=200	=200	=200	=200	=200	=200	=200	=200	=200
4C#'	.	16r	.	2r	.	4eee'	.	vi.iv
.	.	16G#'LL	.	.	.	.	.	.
.	.	16A#'	.	.	.	.	.	.
.	.	16B#X'JJ	.	.	.	.	.	.
4F#'	.	16c#'LL	.	.	.	4ddd#'	.	#viio64/iv
.	.	16d#'	.	.	.	.	.	.
.	.	16e'	.	.	.	.	.	.
.	.	16f#'JJ	.	.	.	.	.	.
=201	=201	=201	=201	=201	=201	=201	=201	=201
4.E	sf	4.g#	sf	16r	.	4.ggg#	sf	iv6
.	.	.	.	16g#'LL	.	.	.	.
.	.	.	.	16a#'	.	.	.	.
.	.	.	.	16b#X'JJ	.	.	.	.
.	.	.	.	16cc#'LL	.	.	.	.
.	.	.	.	16dd#'	.	.	.	.
8D#	.	8g#	.	16ee'	.	8fff#	.	V43/iv
.	.	.	.	16ff#'JJ	.	.	.	.
=202	=202	=202	=202	=202	=202	=202	=202	=202
!LO:TX:b:Bi:t=decresc.	!	!LO:TX:b:Bi:t=decresc.	!	!LO:TX:b:Bi:t=decresc.	!	!LO:TX:b:Bi:t=decresc.	!	!
8C#L	.	16g#LL	.	16gg#LL	.	8eee'L	.	iv
.	.	16g#	.	16gg#	.	.	.	.
8D#J	.	16g#	.	16gg#	.	8ddd#'J	.	i64
.	.	16g#JJ	.	16gg#JJ	.	.	.	.
8EL	.	16g#LL	.	16gg#LL	.	8ccc#L	.	iv6
.	.	16g#	.	16gg#	.	.	.	.
8EJ	.	16a#	.	16aa#	.	8ccc##XJ	.	.Ger6
.	.	16g#JJ	.	16gg#JJ	.	.	.	.
=203	=203	=203	=203	=203	=203	=203	=203	=203
8D#	p	8f##X	p	8ff##X	p	8ddd#	p	V\\
8r	.	8r	.	8r	.	16.r	.	.
.	.	.	.	.	.	32dd#	.	.
16r	.	8r	.	(8bbL	.	(8ddd#L	.	V(6)
16D#'LL	.	.	.	.	.	.	.	.
16E#X'	.	(8d#	.	[8aa#J)	.	[8ccc#J)	.	V65
16F##X'JJ	.	.	.	.	.	.	.	.
=204	=204	=204	=204	=204	=204	=204	=204	=204
8G#'L	.	4.dd#)	.	(8aa#L]	.	(8ccc#L]	.	i(4+2)
8G#'J	.	.	.	16gg#Jk)	.	16bbJk)	.	i
.	.	.	.	16r	.	32r	.	.
.	.	.	.	.	.	32dd#	.	.
16r	.	.	.	(8bbL	.	(8ddd#L	.	V(6)
16D#'LL	.	.	.	.	.	.	.	.
16E#X'	.	(8d#	.	[8aa#J)	.	[8ccc#J)	.	V65
16F##X'JJ	.	.	.	.	.	.	.	.
=205	=205	=205	=205	=205	=205	=205	=205	=205
8G#'L	.	4.dd#)	.	(8aa#L]	.	(8ccc#L]	.	i(4+2)
8G#'J	.	.	.	16gg#Jk)	.	16bbL)	.	i
.	.	.	.	16r	.	32r	.	.
.	.	.	.	.	.	32dd#JJk	.	.
16r	.	.	.	(8bbL	.	(8ddd#L	.	V(6)
16D#'LL	.	.	.	.	.	.	.	.
16E#X'	.	(8d#	.	[8aa#J)	.	[8ccc#J)	.	V65
16F##X'JJ	.	.	.	.	.	.	.	.
=206	=206	=206	=206	=206	=206	=206	=206	=206
8G#'L	.	4dd#)	.	(8aa#L]	.	(8ccc#L]	.	i(4+2)
8G#'J	.	.	.	8gg#J)	.	8bbJ)	.	i
4f#	sf	4a	sf	4dd#	sf	4bb#X	sf	#viio43/iv
=207	=207	=207	=207	=207	=207	=207	=207	=207
(8eL	.	(8g#L	.	(8eeL	.	(16.ccc#LL	.	iv6
.	.	.	.	.	.	32gg#K	.	.
16.c#L	.	16.eL	.	16.gg#L	.	16.eee	.	I.ii
32eJJk)	.	32g#JJk)	.	32eeJJk)	.	32ccc#JJk)	.	.
8f#L	.	8f#L	.	8dd#L	.	8bb'L	.	V(64)
8F#J	.	8f#J	.	8eeJ	.	8aa#tJ	.	V7
.	.	.	.	.	.	(16qqgg#/LL	.	.
.	.	.	.	.	.	16qqaa#/JJ)	.	.
=208	=208	=208	=208	=208	=208	=208	=208	=208
8B	.	8f#	.	8dd#L	.	8bb	.	I\\
8r	.	8r	.	16.r	.	8r	.	.
.	.	.	.	32dd#Jkk	.	.	.	.
16r	.	(8bL	.	(8ddd#L	.	8r	.	I
16D#'LL	.	.	.	.	.	.	.	.
16E#X'	.	[8a#J)	.	[8ccc#J)	.	[8ddd#	.	vi.V65
16F##X'JJ	.	.	.	.	.	.	.	.
=209	=209	=209	=209	=209	=209	=209	=209	=209
8G#L	.	(8a#L]	.	(8ccc#L]	.	(16ddd#LL]	.	i(4+2)
.	.	.	.	.	.	16fff##X	.	.
8G#J	.	16g#Jk)	.	16bbL)	.	16ggg#	.	i
.	.	16r	.	32r	.	16eeeJJ)	.	.
.	.	.	.	32dd#JJk	.	.	.	.
16r	.	(8bL	.	(8ddd#L	.	8ddd#'L	.	V(6)
16D#'LL	.	.	.	.	.	.	.	.
16E#X'	.	[8a#J)	.	[8ccc#J)	.	[8ddd#J	.	V65
16F##X'JJ	.	.	.	.	.	.	.	.
=210	=210	=210	=210	=210	=210	=210	=210	=210
8G#L	.	(8a#L]	.	(8ccc#L]	.	(16ddd#LL]	.	i(4+2)
.	.	.	.	.	.	16fff##X	.	.
8G#J	.	16g#Jk)	.	16bbL)	.	16ggg#	.	i
.	.	16r	.	32r	.	16eeeJJ)	.	.
.	.	.	.	32dd#JJk	.	.	.	.
!LO:TX:b:Bi:t=cresc.	!	!LO:TX:b:Bi:t=cresc.	!	!LO:TX:b:Bi:t=cresc.	!	!LO:TX:b:Bi:t=cresc.	!	!
16r	.	(8bL	.	(8ddd#L	.	8ddd#'L	.	V(6)
16D#'LL	.	.	.	.	.	.	.	.
16E#X'	.	[8a#J)	.	[8ccc#J)	.	[8ddd#J	.	V65
16F##X'JJ	.	.	.	.	.	.	.	.
=211	=211	=211	=211	=211	=211	=211	=211	=211
8G#L	.	(8a#L]	.	(8ccc#L]	.	(16ddd#LL]	.	i(4+2)
.	.	.	.	.	.	16ggg#	.	.
8G#J	.	16g#Jk)	.	16bbJk)	.	16fff##X	.	i
.	.	16r	.	16r	.	16ggg#JJ)	.	.
(4F#	sf	(4d#	sf	(4bb#X	sf	[4aaa	sf	#viio43/iv
=212	=212	=212	=212	=212	=212	=212	=212	=212
16ELL)	.	16eLL)	.	16ccc#LL)	.	(16aaaLL]	.	I.ii6
(16C#	.	(16e	.	(16ee	.	16ggg#JJ)	.	.
16D#	.	16f#	.	16ff#	.	(32fff#LLL	.	.
.	.	.	.	.	.	32eee	.	.
16EJJ	.	16g#JJ	.	16gg#JJ	.	32ddd#	.	.
.	.	.	.	.	.	32ccc#JJJ)	.	.
8F#L)	.	8f#L)	.	8dd#L)	.	8bb'L	.	V(64)
8FF#J	.	8F#J	.	8eeJ	.	8aa#tJ	.	V7
.	.	.	.	.	.	(16qqgg#/LL	.	.
.	.	.	.	.	.	16qqaa#/JJ)	.	.
=213	=213	=213	=213	=213	=213	=213	=213	=213
!	!LO:DY:a	!	!LO:DY:a	!	!LO:DY:a	!	!	!
8BB	p	8B	p	16dd#'LL	p	8bb	.	I\\
.	.	.	.	(16f#	.	.	.	.
8r	.	8r	.	16b	.	8r	.	I
.	.	.	.	16f#JJ)	.	.	.	.
4r	.	8e	.	16r	.	24cc#'LL	.	V2
.	.	.	.	.	.	24dd#'	.	.
.	.	.	.	(16f#LL	.	.	.	.
.	.	.	.	.	.	24ee'	.	.
.	.	8r	.	16a#	.	24ff#'	.	.
.	.	.	.	.	.	24gg#'	.	.
.	.	.	.	16f#JJ)	.	.	.	.
.	.	.	.	.	.	24aa#'JJ	.	.
=214	=214	=214	=214	=214	=214	=214	=214	=214
2r	.	8d#	.	16r	.	(16.bbLL	.	I6
.	.	.	.	(16f#LL	.	.	.	.
.	.	.	.	.	.	32ff#JK)	.	.
.	.	8r	.	16b	.	8ddd#J	.	.
.	.	.	.	16f#JJ)	.	.	.	.
.	.	8A#	.	16r	.	(16.ccc#LL	.	V65
.	.	.	.	(16f#LL	.	.	.	.
.	.	.	.	.	.	32ff#JK)	.	.
.	.	8r	.	16cc#	.	8eeeJ	.	.
.	.	.	.	16f#JJ)	.	.	.	.
=215	=215	=215	=215	=215	=215	=215	=215	=215
4r	.	8B	p	16r	.	(16.ddd#LL	.	I
.	.	.	.	(16f#LL	.	.	.	.
.	.	.	.	.	.	32ff#JK)	.	.
.	.	8r	.	16dd#	.	8fff#J	.	.
.	.	.	.	16f#JJ)	.	.	.	.
8E	.	16r	.	24c#'LL	.	4r	.	V2
.	.	.	.	24d#'	.	.	.	.
.	.	(16F#LL	.	.	.	.	.	.
.	.	.	.	24e'	.	.	.	.
8r	.	16A#	.	24f#'	.	.	.	.
.	.	.	.	24g#'	.	.	.	.
.	.	16F#JJ)	.	.	.	.	.	.
.	.	.	.	24a#'JJ	.	.	.	.
=216	=216	=216	=216	=216	=216	=216	=216	=216
8D#	.	16r	.	16b'LL	.	2r	.	V65
.	.	(16F#LL	.	(16b	.	.	.	.
8r	.	16B	.	16f#	.	.	.	.
.	.	16F#JJ)	.	16dd#JJ)	.	.	.	.
8AA#	.	16r	.	16cc#'LL	.	.	.	.
.	.	(16F#LL	.	(16cc#	.	.	.	.
8r	.	16c#	.	16f#	.	.	.	.
.	.	16F#JJ)	.	16eeJJ)	.	.	.	.
=217	=217	=217	=217	=217	=217	=217	=217	=217
8BB	.	16r	.	16dd#'LL	.	4r	.	I
.	.	(16F#LL	.	(16dd#	.	.	.	.
8r	.	16d#	.	16f#	.	.	.	.
.	.	16F#JJ)	.	16ff#JJ)	.	.	.	.
8e	.	16a#'LL	.	16cc#'LL	.	24cc#'LL	.	V2
.	.	.	.	.	.	24dd#'	.	.
.	.	16f#'	.	16ff#'	.	.	.	.
.	.	.	.	.	.	24ee'	.	.
8r	.	16a#'	.	16cc#'	.	24ff#'	.	.
.	.	.	.	.	.	24gg#'	.	.
.	.	16f#'JJ	.	16ff#'JJ	.	.	.	.
.	.	.	.	.	.	24aa#'JJ	.	.
=218	=218	=218	=218	=218	=218	=218	=218	=218
8d#	.	16bLL	.	16dd#LL	.	16bb'LL	.	I6
.	.	16f#	.	16ff#	.	(16bb	.	.
8r	.	16b	.	16dd#	.	16ff#	.	.
.	.	16f#JJ	.	16ff#JJ	.	16ddd#JJ)	.	.
8A#	.	16cc#LL	.	16eeLL	.	16ccc#'LL	.	V65
.	.	16f#	.	16ff#	.	(16ccc#	.	.
8r	.	16cc#	.	16ee	.	16ff#	.	.
.	.	16f#JJ	.	16ff#JJ	.	16eeeJJ)	.	.
=219	=219	=219	=219	=219	=219	=219	=219	=219
8B	.	16bLL	.	16dd#LL	.	16ddd#'LL	.	I
.	.	16f#	.	16ff#	.	(16ddd#	.	.
8r	.	16b	.	16dd#	.	16ff#	.	.
.	.	16f#JJ	.	16gg#JJ	.	16fff#JJ)	.	.
8e	.	16a#LL	.	16cc#LL	.	24ccc#'LL	.	V2
.	.	.	.	.	.	24ddd#'	.	.
.	.	16f#	.	16gg#	.	.	.	.
.	.	.	.	.	.	24eee'	.	.
8r	.	16a#	.	16cc#	.	24fff#'	.	.
.	.	.	.	.	.	24ggg#'	.	.
.	.	16f#JJ	.	16ff#JJ	.	.	.	.
.	.	.	.	.	.	24aaa#'JJ	.	.
=220	=220	=220	=220	=220	=220	=220	=220	=220
8d#	.	8b	.	8dd#L	.	24bbbLL	.	I6
.	.	.	.	.	.	24aaa#	.	.
.	.	.	.	.	.	24bbbJJ	.	.
8r	.	8r	.	8dd#'J	.	24fff##XLL	.	III
.	.	.	.	.	.	24ggg#	.	.
.	.	.	.	.	.	24fff##JJ	.	.
4r	.	4r	.	8ee'L	.	24ggg#LL	.	IV
.	.	.	.	.	.	24aaa#	.	.
.	.	.	.	.	.	24ggg#JJ	.	.
.	.	.	.	8b#X'J	.	24ddd#LL	.	V6/ii
.	.	.	.	.	.	24eee	.	.
.	.	.	.	.	.	24ddd#JJ	.	.
=221	=221	=221	=221	=221	=221	=221	=221	=221
2r	.	2r	.	8cc#'L	.	24eeeLL	.	ii
.	.	.	.	.	.	24fff#	.	.
.	.	.	.	.	.	24eee	.	.
.	.	.	.	8g##X'J	.	24bb#X	.	.
.	.	.	.	.	.	24ccc#	.	.
.	.	.	.	.	.	24bb#JJ	.	.
.	.	.	.	8a#'L	.	24ccc#LL	.	V6
.	.	.	.	.	.	24ddd#	.	.
.	.	.	.	.	.	24ccc#	.	.
.	.	.	.	8g#'J	.	24bb	.	.
.	.	.	.	.	.	24ccc#	.	.
.	.	.	.	.	.	24bbJJ	.	.
=222	=222	=222	=222	=222	=222	=222	=222	=222
8r	.	8r	.	8f#'L	.	24aa#LL	.	V
.	.	.	.	.	.	24bb	.	.
.	.	.	.	.	.	24aa#	.	.
8F#'	.	8A#'	.	8e'J	.	24gg#	.	V9
.	.	.	.	.	.	24aa#	.	.
.	.	.	.	.	.	24gg#JJ	.	.
8G#'L	.	8B'L	.	8d#'L	.	24ff#LL	.	vi7
.	.	.	.	.	.	24gg#	.	.
.	.	.	.	.	.	24ff#	.	.
8A#'J	.	8c#'J	.	8c#'J	.	24ee	.	.
.	.	.	.	.	.	24ff#	.	V65
.	.	.	.	.	.	24eeJJ	.	.
=223	=223	=223	=223	=223	=223	=223	=223	=223
!LO:TX:b:Bi:t=cresc.	!	!LO:TX:b:Bi:t=cresc.	!	!LO:TX:b:Bi:t=cresc.	!	!LO:TX:b:Bi:t=cresc.	!	!
8B'L	.	8d#	.	8B	.	16dd#LL	.	I
.	.	.	.	.	.	16ddd#	.	.
8A'J	.	4B	.	4b	.	16dd#	.	V2/IV
.	.	.	.	.	.	16ddd#JJ	.	.
8G#'L	.	.	.	.	.	16eeLL	.	IV6
.	.	.	.	.	.	16eee	.	.
8D#'J	.	(8a	.	[8b	.	16ff#	.	V65/IV
.	.	.	.	.	.	16fff#JJ	.	.
=224	=224	=224	=224	=224	=224	=224	=224	=224
8E'L	.	8g#L)	.	8b]	.	16gg#LL	.	IV
.	.	.	.	.	.	16ggg#	.	.
8C#'J	.	8eJ	.	4ff#	.	16aa#	.	V43
.	.	.	.	.	.	16aaa#JJ	.	.
8D#'L	.	8f#L	.	.	.	16bbLL	.	I6
.	.	.	.	.	.	16bbb	.	.
8AA#'J	.	[8f#J	.	[8ff#	.	16ccc#	.	V6
.	.	.	.	.	.	16cccc#JJ	.	.
=225	=225	=225	=225	=225	=225	=225	=225	=225
8BB'L	.	8f#]	.	8ff#]	.	16ddd#KL	.	I
.	.	.	.	.	.	8dddd#	.	.
8FF##X'J	.	4B	.	4dd#	.	.	.	.
.	.	.	.	.	.	[16dddd#Jk	.	V6(+6)/vi
8GG#'L	.	.	.	.	.	16dddd#KL]	.	.
.	.	.	.	.	.	8dddd#	.	vi
8EE#X'J	.	[8B	.	[8dd#	.	.	.	.
.	.	.	.	.	.	[16dddd#Jk	.	#vii%/V
=226	=226	=226	=226	=226	=226	=226	=226	=226
8FF#'L	.	8B]	.	8dd#]	.	16dddd#KL]	.	V(64)
.	.	.	.	.	.	8dddd#	.	V6(+6)
8FF##X'J	.	4B	.	4dd#	.	.	.	.
.	.	.	.	.	.	[16dddd#Jk	.	.
8GG#'L	.	.	.	.	.	16dddd#KL]	.	.
.	.	.	.	.	.	8dddd#	.	vi
8EE#X'J	.	[8B	.	[8dd#	.	.	.	.
.	.	.	.	.	.	[16dddd#Jk	.	#vii%/V
=227	=227	=227	=227	=227	=227	=227	=227	=227
[2FF#	.	8BL]	.	8dd#L]	.	8dddd#]	.	V[V(64)
.	.	(8bJ	sf	(8bbJ	sf	(24ddd#LL	sf	.
.	.	.	.	.	.	24bb	.	.
.	.	.	.	.	.	24ddd#JJ)	.	.
.	.	8a#L	.	8aa#L	.	(24eeeLL	.	V7
.	.	.	.	.	.	24ccc#	.	.
.	.	.	.	.	.	24eeeJJ)	.	.
.	.	8g#J	.	8gg#J	.	(24eee#XLL	.	.
.	.	.	.	.	.	24ccc##X	.	.
.	.	.	.	.	.	24eee#JJ)	.	.
=228	=228	=228	=228	=228	=228	=228	=228	=228
8FF#L]	.	8f#'L)	.	8ff#'L)	.	24fff#LL	.	I]
.	.	.	.	.	.	24ddd#	.	.
.	.	.	.	.	.	24fff#	.	.
!	!	!	!LO:DY:a	!	!	!	!	!
(8BBJ	sf	(8BJ	sf sf	(8bJ	.	24ddd#	sf	I
.	.	.	.	.	.	24bb	.	.
.	.	.	.	.	.	24ddd#JJ	.	.
8AA#L	.	8A#L	.	8a#L	.	24eeeLL	.	viio
.	.	.	.	.	.	24ccc#	.	.
.	.	.	.	.	.	24eee	.	.
8GG#J	.	8G#J	.	8g#J	.	24eee#X	.	#viio65/V
.	.	.	.	.	.	24ccc##X	.	.
.	.	.	.	.	.	24eee#JJ	.	.
=229	=229	=229	=229	=229	=229	=229	=229	=229
8FF#')	.	8F#')	.	8f#')	.	24fff#LL	p	V(64)
.	.	.	.	.	.	24ddd#	.	.
.	.	.	.	.	.	24fff#JJ	.	.
8r	.	8r	.	8r	.	8r	.	.
4r	.	4r	.	4r	.	8r	.	.
.	.	.	.	.	.	8ff#	.	V
=230	=230	=230	=230	=230	=230	=230	=230	=230
2r	.	8r	.	8r	.	(4bb	p	vi
.	.	8gg#'	p	4bb	.	.	.	.
.	.	8ee'L	.	.	.	16ccc#LL	.	ii6
.	.	.	.	.	.	16ddd#	.	.
.	.	8ff#'J	.	8aa#	.	16eee	.	V7
.	.	.	.	.	.	16ccc#JJ)	.	.
=231	=231	=231	=231	=231	=231	=231	=231	=231
2r	.	8dd#'L	.	8bb'L	.	(4fff#	.	I
.	.	8b'J	.	8ddd#'J	.	.	.	.
.	.	4r	.	4r	.	8bbbL)	.	.
.	.	.	.	.	.	8f#J	.	.
=232	=232	=232	=232	=232	=232	=232	=232	=232
8r	.	8r	.	8r	.	(4b	p	vi
8G#'	.	4B	.	8dd#'	.	.	.	.
8E'L	.	.	.	8gg#'L	.	16cc#LL	.	ii6
.	.	.	.	.	.	16dd#	.	.
8F#'J	.	8A#'	.	8ee'J	.	16ee	.	V7
.	.	.	.	.	.	16cc#JJ)	.	.
=233	=233	=233	=233	=233	=233	=233	=233	=233
8BB	.	8B	.	4dd#	.	4b	.	I\\
8r	.	8r	.	.	.	.	.	.
8r	.	4r	.	4r	.	4r	.	.
8F#	.	.	.	.	.	.	.	.
=234	=234	=234	=234	=234	=234	=234	=234	=234
!LO:TX:b:Bi:t=cresc.	!	!	!	!	!	!	!	!
(4B	.	2r	.	2r	.	2r	.	V43
16c#LL	.	.	.	.	.	.	.	.
16d#	.	.	.	.	.	.	.	.
16e	.	.	.	.	.	.	.	.
16c#JJ)	.	.	.	.	.	.	.	.
=235	=235	=235	=235	=235	=235	=235	=235	=235
!	!	!	!	!	!	!LO:TX:b:Bi:t=cresc.	!	!
(4d#	.	(4B	.	2r	.	[2b	.	ii7
16eLL	.	16c#LL	.	.	.	.	.	.
16f#	.	16d#	.	.	.	.	.	.
16g#	.	16e	.	.	.	.	.	.
16eJJ)	.	16c#JJ)	.	.	.	.	.	.
=236	=236	=236	=236	=236	=236	=236	=236	=236
(4f#	.	(4d#	.	(4aa	.	2b_	.	V65/IV
16g#LL	.	16eLL	.	16gg#LL	.	.	.	.
16a	.	16f#	.	16ff#	.	.	.	.
16b	.	16g#	.	16ee	.	.	.	.
16g#JJ)	.	16eJJ)	.	16gg#JJ)	.	.	.	.
=237	=237	=237	=237	=237	=237	=237	=237	=237
2a;	.	2f#;	.	2dd#;	.	(8b]	.	V43/IV
.	.	.	.	.	.	4.ccX;)	> < [[	.
=238	=238	=238	=238	=238	=238	=238	=238	=238
(4F##X	p	(4A#	p	(4cc#	p	[2dd#	[ p	vi
16G#LL	.	16BLL	.	16bLL	.	.	.	.
16A#	.	16c#	.	16a#	.	.	.	.
16B	.	16d#	.	16g#	.	.	.	.
16G#JJ)	.	16BJJ)	.	16bJJ)	.	.	.	.
=239	=239	=239	=239	=239	=239	=239	=239	=239
2A#;	< > ]]	2c#;	< > ]]	2f##X;	< > ]]	(8dd#]	.	V43/vi
.	.	.	.	.	.	4.ee;)	< > ]]	#viio65/vi
=240	=240	=240	=240	=240	=240	=240	=240	=240
(4A#	]	(4c#	]	(4ee	]	[2ff#	]	I
16BLL	.	16d#LL	.	16dd#LL	.	.	.	.
16c#	.	16e	.	16cc#	.	.	.	.
16d#	.	16f#	.	16b	.	.	.	.
16BJJ)	.	16d#JJ)	.	16dd#JJ)	.	.	.	.
=241	=241	=241	=241	=241	=241	=241	=241	=241
2c#;	> < [[	2e;	> < [[	2a#;	> < [[	(8ff#]	.	V43
.	.	.	.	.	.	4.ggX;)	< > ]]	viio65
=242	=242	=242	=242	=242	=242	=242	=242	=242
8d#	[ pp	8f#	[ pp	8b	[ pp	4ff#	] pp	I6
8r	.	8r	.	8r	.	.	.	.
4r	.	4r	.	4r	.	(32dd#LLL	.	.
.	.	.	.	.	.	32ee	.	.
.	.	.	.	.	.	32dd#	.	.
.	.	.	.	.	.	32ee	.	.
.	.	.	.	.	.	32ff#	.	.
.	.	.	.	.	.	32gg#	.	.
.	.	.	.	.	.	32aa#	.	.
.	.	.	.	.	.	32bbJJJ)	.	.
=243	=243	=243	=243	=243	=243	=243	=243	=243
4r	.	4r	.	4r	.	4ff#	.	.
8.r	.	8.r	.	8.r	.	8.r	.	.
16d#	.	16d#	.	16d#	.	16dd#	.	.
=244	=244	=244	=244	=244	=244	=244	=244	=244
.	.	.	.	.	.	8qff#/	.	V7
8..eL	.	8eL	.	8eL	.	8eeL	.	.
.	.	16.r	.	16.r	.	16.r	.	.
32eJkk	.	32eJkk	.	32eeJkk	.	32eeJkk	.	.
8..c#L	.	8c#L	.	8cc#L	.	8cc#L	.	.
.	.	16.r	.	16.r	.	16.r	.	.
32A#Jkk	.	32A#Jkk	.	32a#Jkk	.	32a#Jkk	.	.
=245	=245	=245	=245	=245	=245	=245	=245	=245
4F#	.	4F#	.	4f#	.	4f#	.	V\\
4r	.	4r	.	4r	.	8r	.	.
.	.	.	.	.	.	8ff#	.	.
=246	=246	=246	=246	=246	=246	=246	=246	=246
2r	.	8r	.	8r	.	(4bb	.	vi
.	.	8gg#'	.	4bb	.	.	.	.
.	.	8ee'L	.	.	.	16ccc#LL	.	ii6
.	.	.	.	.	.	16ddd#	.	.
.	.	8ff#'J	.	8aa#'	.	16eee	.	V7
.	.	.	.	.	.	16ccc#JJ)	.	.
=247	=247	=247	=247	=247	=247	=247	=247	=247
2r	.	8dd#'L	.	8bb'L	.	(4fff#	.	I
.	.	8b'J	.	8ddd#'J	.	.	.	.
.	.	8r	.	4r	.	8bbb)	.	.
.	.	8F#	.	.	.	8r	.	.
=248	=248	=248	=248	=248	=248	=248	=248	=248
8r	.	(4B	.	4.r	.	4.r	.	ii6
8G#	.	.	.	.	.	.	.	.
!	!	!LO:TX:b:t=pizz.	!	!	!	!	!	!
8EL	.	16c#LL	.	.	.	.	.	.
.	.	16d#	.	.	.	.	.	.
!	!	!	!	!LO:TX:a:t=pizz.	!	!LO:TX:a:t=pizz.	!	!
8F#J	.	16e	.	8f# 8ee	.	8cc# 8aa#	.	V7
.	.	16c#JJ)	.	.	.	.	.	.
=249	=249	=249	=249	=249	=249	=249	=249	=249
4BB	.	8B	.	8f# 8dd#	.	8dd# 8bb	.	I\\
.	.	4.r	.	4.r	.	4.r	.	.
4r	.	.	.	.	.	.	.	.
==	==	==	==	==	==	==	==	==
*-	*-	*-	*-	*-	*-	*-	*-	*-
!!!system-decoration: [(s1,s2,s3,s4)]
